!!!!SEGMENT: pl-sa--216-a-vi-20_rhein-carolo-de--salve-regina.krn
!!!cenid: 17xx:602
!!!COM: Rhein, Carolo de
!!!COM-rismid: pe41010092
!!!CDT:
!!!CNT:
!!!OTL: Salve Regina
!!!PDT: 1766
!!!AGN: Sacred
!!!SMS-siglum: PL-SA
!!!SMS-shelfmark: 216/A VI 20
!!!SMS-shelfwork: W
!!!SMS-variant:
!!!SMS-altvar:
!!!NIFC-rismid: 1001030010
!!!URL-scan: http://bc.bdsandomierz.pl/dlibra/publication/1572/edition/1540/content
!!!ONB-nifc: UWAGA: brak partii viola da braccio
**kern	**dynam	**kern	**kern	**dynam	**kern	**dynam	**kern	**text
*part5	*part5	*part4	*part3	*part3	*part2	*part2	*part1	*part1
*staff5	*	*staff4	*staff3	*	*staff2	*	*staff1	*staff1
*I"Fundamente	*	*I"Viola di Braccio	*I"Violino Secundo	*	*I"Violino Primo	*	*I"Canto	*
*I'Fund.	*	*I'V-la	*I'V-no II	*	*I'V-no I	*	*I'C.	*
*clefF4	*	*clefC3	*clefG2	*	*clefG2	*	*clefC1	*
*Trd0c0	*	*	*	*	*	*	*	*
*k[b-]	*	*k[b-]	*k[b-]	*	*k[b-]	*	*k[b-]	*
*M4/4	*	*M4/4	*M4/4	*	*M4/4	*	*M4/4	*
*met(c)	*	*met(c)	*met(c)	*	*met(c)	*	*met(c)	*
=1	=1	=1	=1	=1	=1	=1	=1	=1
!LO:TX:i:a:t=Adagio	!	!LO:TX:a:t=P:problem:wybrakowane źródło, brak partii	!LO:TX:i:a:t=Adagio	!	!LO:TX:i:a:t=Adagio	!	!LO:TX:i:a:t=Adagio	!
!LO:TX:i:b:t=Salve	!	!	!LO:TX:i:a:t=Salve	!	!LO:TX:i:a:t=Salve	!	!	!
8F\L	.	1ryy	8cc\L	.	8ff\L	.	00r	.
8F\	.	.	8cc\	.	8ff\	.	.	.
8F\	.	.	8cc\	.	8ff\	.	.	.
8F\J	.	.	8cc\J	.	8ff\J	.	.	.
4F;>\	.	.	4cc;>\	.	4ff;>\	.	.	.
4r	.	.	4r	.	4r	.	.	.
!	!	!	!LO:TX:t=[segno]	!	!	!	!	!
=2	=2	=2	=2	=2	=2	=2	=2	=2
8F\L	.	1ryy	(>32ff\KLL	.	(>32ff\KLL	.	.	.
.	.	.	16.aa\)	.	16.aa\)	.	.	.
!	!	!	!	!	!LO:TX:a:t=P:problem:wytarty łuk	!	!	!
8F\	.	.	(>32ff\K	.	(>32ff\K	.	.	.
.	.	.	16.cc\JJ)	.	16.cc\JJ)	.	.	.
!	!	!	!	!	!LO:TX:a:t=P:problem:mixed beam	!	!	!
8F\	.	.	32a/KLL	.	(<32a\KLL	.	.	.
.	.	.	16.f/	.	16.f\)	.	.	.
8F\J	.	.	32c/K	.	(>32c\K	.	.	.
.	.	.	16.a/JJ	.	16.cc/JJ)	.	.	.
8G\L	.	.	16g/LL	.	(>16b-\LL	.	.	.
.	.	.	16f/J	.	16a\J)	.	.	.
8C\J	.	.	8g/J	.	8b-\J	.	.	.
16C\LL	.	.	4r	.	4r	.	.	.
16c\	.	.	.	.	.	.	.	.
16Bn\	.	.	.	.	.	.	.	.
16c\JJ	.	.	.	.	.	.	.	.
=3	=3	=3	=3	=3	=3	=3	=3	=3
8C\L	.	1ryy	32ee\KLL	.	(>32ee\KLL	.	.	.
.	.	.	16.gg\	.	16.gg\JJ)	.	.	.
8C\	.	.	32ee\K	.	(>32ee\KLL	.	.	.
.	.	.	16.cc\JJ	.	16.cc\JJ)	.	.	.
8C\	.	.	32b-/KLL	.	(<16b-/LL	.	.	.
.	.	.	16.g/JJ	.	.	.	.	.
.	.	.	.	.	16g/JJ)	.	.	.
8C\J	.	.	32c/KLL	.	(<32c/KLL	.	.	.
.	.	.	16.g/JJ	.	16.b-/JJ)	.	.	.
8F\L	.	.	(<16f/LL	.	(<16a/LL	.	.	.
.	.	.	16e/J)	.	16g/J)	.	.	.
8F\J	.	.	8f/J	.	8a/J	.	.	.
!LO:TX:a:t=P:problem:mixed beam	!	!	!	!	!	!	!	!
16FF/LL	.	.	4r	.	4r	.	.	.
16F\	.	.	.	.	.	.	.	.
16E\	.	.	.	.	.	.	.	.
16F\JJ	.	.	.	.	.	.	.	.
=4	=4	=4	=4	=4	=4	=4	=4	=4
8G\L	.	1ryy	8bn\L	.	8bn'>\L	.	.	.
8G\	.	.	8b\J	.	8b'>\J	.	.	.
*	*	*	*Xtuplet	*	*Xtuplet	*	*	*
!	!	!	!	!	!LO:TUP:a:problem:klamra łukowa, kropka zamiast numeru	!	!	!
8F\	.	.	24b\LL	.	24b\L	.	.	.
.	.	.	24cc\	.	24cc'>\	.	.	.
.	.	.	24dd\JJ	.	24dd\J	.	.	.
!	!	!	!	!	!LO:TUP:a:problem:klamra łukowa, kropka zamiast numeru	!	!	!
8F\J	.	.	24ee\LL	.	24ee\L	.	.	.
.	.	.	24ff\	.	24ff\	.	.	.
.	.	.	24gg\JJ	.	24gg\J	.	.	.
8E\L	.	.	8cc\L	.	8cc'>\L	.	.	.
8E\	.	.	8cc\J	.	8cc'>\J	.	.	.
!	!	!	!	!	!LO:TUP:a:problem:klamra łukowa, kropka zamiast numeru	!	!	!
8C\	.	.	24cc\LL	.	24cc\L	.	.	.
.	.	.	24dd\	.	24dd\	.	.	.
.	.	.	24ee\JJ	.	24ee'>\J	.	.	.
!	!	!	!	!	!LO:TUP:a:problem:klamra łukowa, kropka zamiast numeru	!	!	!
8C\J	.	.	24ee\LL	.	24ee\L	.	.	.
.	.	.	24ff\	.	24ff\	.	.	.
.	.	.	24gg\JJ	.	24gg'>\J	.	.	.
=5	=5	=5	=5	=5	=5	=5	=5	=5
8BBn/L	.	1ryy	8dd\L	.	8dd'>\L	.	00r	.
8BB/	.	.	8dd\J	.	8dd'>\J	.	.	.
!	!	!	!	!	!LO:TUP:a:problem:klamra łukowa, kropka zamiast numeru	!	!	!
8GG/	.	.	24dd\LL	.	24dd\L	.	.	.
.	.	.	24ee\	.	24ee\	.	.	.
.	.	.	24ff\JJ	.	24ff'>\J	.	.	.
!	!	!	!	!	!LO:LB:g=original	!	!	!
!	!	!	!	!	!LO:TUP:a:problem:klamra łukowa, kropka zamiast numeru	!	!	!
8GG/J	.	.	24ee\LL	.	24aa\L	.	.	.
.	.	.	24dd\	.	24gg\	.	.	.
.	.	.	24cc\JJ	.	24ff\J	.	.	.
!	!	!	!LO:LB:g=original	!	!	!	!	!
8C\L	.	.	8cc\L	.	8ee\L	.	.	.
8C\	.	.	8cc\J	.	8ee\J	.	.	.
8F\	.	.	4cc\	.	4ee\	.	.	.
8F\J	.	.	.	.	.	.	.	.
=6	=6	=6	=6	=6	=6	=6	=6	=6
8G\L	.	1ryy	8bn/L	.	8dd\L	.	.	.
8G\	.	.	8a/J	.	8ff\J	.	.	.
8G\	.	.	(<16g/LL	.	(>16ee\LL	.	.	.
.	.	.	16f/)	.	16dd\)	.	.	.
8G\J	.	.	(<16e/	.	(>16cc\	.	.	.
.	.	.	16d/JJ)|	.	16bn\JJ)	.	.	.
!LO:LB:g=original	!	!	!	!	!	!	!	!
8G\L	.	.	8e/L	.	12cc\L	.	.	.
.	.	.	.	.	12g\	.	.	.
8G\	.	.	8a/J	.	.	.	.	.
.	.	.	.	.	12ff\J	.	.	.
8G\	.	.	16g/LL	.	(>16ee\LL	.	.	.
.	.	.	16f/	.	16dd\)	.	.	.
8G\J	.	.	16e/	.	(>16cc\	.	.	.
.	.	.	16d/JJ	.	16bn\JJ)	.	.	.
=7	=7	=7	=7	=7	=7	=7	=7	=7
!	!	!	!LO:TX:a:t=P:problem:mixed beam	!	!	!	!	!
8C\L	.	1ryy	8e/L	.	8cc\L	.	.	.
8C\	.	.	8gg\J	.	8gg\J	.	.	.
8C\	.	.	24gg\LL|	.	24gg'>\LL	.	.	.
.	.	.	24ff\|	.	(>24ff\	.	.	.
.	.	.	24ee\JJ|	.	24ee\JJ)	.	.	.
8C\J	.	.	24dd\LL|	.	24dd'>\LL	.	.	.
.	.	.	24cc\|	.	(>24cc\	.	.	.
.	.	.	24b-\JJ|	.	24b-'>\JJ)	.	.	.
!	!	!	!LO:TX:a:t=P:problem:mixed beam	!	!	!	!	!
8F\L	.	.	8a/L	.	(>16a\LL	.	.	.
.	.	.	.	.	16ff\JJ)	.	.	.
8F\	.	.	16a/L	.	(>32cc\KLL	.	.	.
.	.	.	.	.	16.aa\JJ)	.	.	.
.	.	.	16ff\JJ	.	.	.	.	.
8F\	.	.	32cc\KLL	.	(>32ff\KLL	.	.	.
.	.	.	16.a\JJ	.	16.cc\JJ)	.	.	.
8F\J	.	.	32f/KLL	.	(>32a\KLL	.	.	.
.	.	.	16.c/JJ	.	16.f\JJ)	.	.	.
=8	=8	=8	=8	=8	=8	=8	=8	=8
8BB-/L	.	1ryy	4dd\	.	4dd\	.	.	.
8BB-/	.	.	.	.	.	.	.	.
!	!	!	!	!	!	!LO:HP:a:i:t=p:	!	!
!	!	!	!	!	!	!LO:DY:a	!	!
8C/	.	.	16cc\LL	.	(>16cc\LL	p	.	.
.	.	.	16b-\	.	16b-\)	.	.	.
8C/J	.	.	16a\	.	(>16a\	.	.	.
.	.	.	16g\JJ	.	16g\JJ)	.	.	.
!	!LO:HP:a:i:t=p:	!	!	!	!	!	!	!
!	!LO:DY:a	!	!LO:TX:a:t=P:problem:mixed beam	!	!LO:TX:a:t=P:problem:mixed beam	!	!	!
8F\L	p	.	8a/L	.	(>32f/KLL	.	.	.
.	.	.	.	.	16.ff\JJ)	.	.	.
16F\	.	.	16a/L	.	(>32cc\KLL	.	.	.
.	.	.	.	.	16.aa\JJ)	.	.	.
16F\J	.	.	16ff\JJ	.	.	.	.	.
4F\	.	.	32cc\KLL	.	(>32ff\KLL	.	.	.
.	.	.	16.a\JJ	.	16.cc\JJ)	.	.	.
.	.	.	32f/KLL	.	(>32a\KLL	.	.	.
.	.	.	16.c/JJ	.	16.f\JJ)	.	.	.
=9	=9	=9	=9	=9	=9	=9	=9	=9
8BB-/L	.	1ryy	4dd\	.	4dd\	.	1r	.
!	!LO:HP:a:i:t=for	!	!	!	!	!	!	!
!	!LO:DY:a	!	!	!	!	!	!	!
8BB-/	f	.	.	.	.	.	.	.
8C/	.	.	16cc\LL	.	(>16cc\LL	.	.	.
.	.	.	16b-\	.	16b-\)	.	.	.
8C/J	.	.	16a\	.	(>16a\	.	.	.
.	.	.	16g\JJ	.	16g\JJ)	.	.	.
8F\L	.	.	8f'</L	.	8f'</L	.	.	.
16F\L	.	.	16f'</L	.	16f'</L	.	.	.
16F\JJ	.	.	16f'</JJ	.	16f'</JJ	.	.	.
!	!	!	!LO:TX:a:t=P:problem:to jest segno	!	!	!	!	!
4F\	.	.	4f;;>/	.	4f/	.	.	.
!	!	!	!LO:LB:g=original	!	!	!	!	!
=10	=10	=10	=10	=10	=10	=10	=10	=10
*	*	*	*	*	*	*	*2\right	*
!LO:TX:a:t=P:problem:ten takt nie jest uwzględniony w partyturze	!	!	!LO:TX:a:t=P:problem:takt nie jest uwzględniony w partyturze	!	!LO:TX:a:t=P:problem:ten takt nie jest uwzględniony w partyturze	!	!	!
1ryy	.	1ryy	1ryy	.	1ryy	.	2cc\	Sal-
.	.	.	.	.	.	.	8.ff\L	.
!	!	!	!	!	!	!	!LO:SIC:s=64gg	!
!	!	!	!	!	!	!	!LO:N:vis=32	!
.	.	.	.	.	.	.	64gg\LLL	.
!	!	!	!	!	!	!	!LO:SIC:s=64ff	!
!	!	!	!	!	!	!	!LO:N:vis=32	!
.	.	.	.	.	.	.	64ff\J	.
!	!	!	!	!	!	!	!LO:SIC:s=32ee	!
!	!	!	!	!	!	!	!LO:N:vis=16	!
.	.	.	.	.	.	.	32ee\JJJ	.
.	.	.	.	.	.	.	8.ff\L	.
!	!	!	!	!	!	!	!LO:SIC:s=64gg	!
!	!	!	!	!	!	!	!LO:N:vis=32	!
.	.	.	.	.	.	.	64gg\LLL	.
!	!	!	!	!	!	!	!LO:SIC:s=64ff	!
!	!	!	!	!	!	!	!LO:N:vis=32	!
.	.	.	.	.	.	.	64ff\J	.
!	!	!	!	!	!	!	!LO:SIC:s=32ee	!
!	!	!	!	!	!	!	!LO:N:vis=16	!
.	.	.	.	.	.	.	32ee\JJJ	.
!	!	!	!	!	!	!	!LO:TX:a:t=P:problem:brak kreski taktowej	!
=11	=11	=11	=11	=11	=11	=11	=11	=11
!	!	!	!	!LO:HP:a:i:t=pia	!	!LO:HP:a:i:t=p:	!	!
!	!	!	!	!LO:DY:a	!	!LO:DY:a	!	!
8F\L	.	1ryy	8cc\L	p	8ff'>\L	p	8.ff\L	.
8F\	.	.	8cc\	.	8ff'>\	.	.	.
!	!	!	!	!	!	!	!LO:SIC:s=64gg	!
!	!	!	!	!	!	!	!LO:N:vis=32	!
.	.	.	.	.	.	.	64gg\LLL	.
!	!	!	!	!	!	!	!LO:SIC:s=64ff	!
!	!	!	!	!	!	!	!LO:N:vis=32	!
.	.	.	.	.	.	.	64ff\J	.
!	!	!	!	!	!	!	!LO:SIC:s=32ee	!
!	!	!	!	!	!	!	!LO:N:vis=16	!
.	.	.	.	.	.	.	32ee\JJJ	.
8F\	.	.	8cc\	.	8ff'>\	.	8.ff\L	.
8F\J	.	.	8cc\J	.	8ff'>\J	.	.	.
.	.	.	.	.	.	.	64gg\LLL	.
.	.	.	.	.	.	.	64ff\J	.
.	.	.	.	.	.	.	32ee\JJJ	.
!	!	!	!	!	!LO:LB:g=original	!	!	!
4F;>\	.	.	4cc;>\	.	4ff;>\	.	8.ff\L	.
.	.	.	.	.	.	.	64gg\LLL	.
.	.	.	.	.	.	.	64ff\J	.
.	.	.	.	.	.	.	32ee\JJJ	.
!	!	!	!	!	!LO:TX:a:t=P:problem:podwójna kreska taktowa	!	!	!
.	.	.	.	.	.	.	8qqee/	.
4r	.	.	4r	.	4r	.	4ff\	-ve
=12	=12	=12	=12	=12	=12	=12	=12	=12
8F\L	.	1ryy	8a/L	.	(>32ff\KLL	.	8ff\	Sal-
.	.	.	.	.	16.aa\JJ)	.	.	.
8F\	.	.	8a/	.	(>32ff\KLL	.	4cc\	-ve
.	.	.	.	.	16.cc\JJ)	.	.	.
8F\	.	.	8a/	.	32a\KLL	.	.	.
.	.	.	.	.	16.f'>\JJ	.	.	.
!	!	!	!	!	!LO:TX:a:t=P:problem:mixed beam	!	!	!
8F\J	.	.	8a/J	.	(>32c/KLL	.	8cc\	re-
.	.	.	.	.	16.cc\JJ)	.	.	.
8G\L	.	.	(<16g/LL	.	(>16b-\LL	.	16b-\LL	-gi-
.	.	.	16f/J)	.	16a\J)	.	16a\JJ	.
8C\J	.	.	8g/J	.	8b-'>\J	.	8b-\	-na
16C\LL	.	.	8g/L	.	8b-\L	.	4r	.
16c\	.	.	.	.	.	.	.	.
16Bn\	.	.	8g/J	.	8b-\J	.	.	.
16c\JJ	.	.	.	.	.	.	.	.
=13	=13	=13	=13	=13	=13	=13	=13	=13
8C\L	.	1ryy	8g/L	.	(>16ee\LL	.	8gg\	Sal-
.	.	.	.	.	16gg\)	.	.	.
8C\	.	.	8g/	.	(>16ee\	.	4b-\	-ve
.	.	.	.	.	16cc\JJ)	.	.	.
8C\	.	.	8g/	.	(>16b-\LL	.	.	.
.	.	.	.	.	16g\JJ)	.	.	.
!	!	!	!	!	!LO:TX:a:t=P:problem:mixed beam	!	!	!
8C\J	.	.	8g/J	.	(>16c/LL	.	8b-\	re-
.	.	.	.	.	16b-\JJ)	.	.	.
8F\L	.	.	16f/LL	.	(>16a\LL	.	16a\LL	-gi-
.	.	.	16e/J	.	16g\J)	.	16g\JJ	.
8F\J	.	.	8f/J	.	8a'>\J	.	8a\	-na
!LO:TX:a:t=P:problem:mixed beam	!	!	!	!	!	!	!	!
16FF/LL	.	.	8f/L	.	8a'>\L	.	4r	.
16F\	.	.	.	.	.	.	.	.
16E\	.	.	8f/J	.	8a'>\J	.	.	.
16F\JJ	.	.	.	.	.	.	.	.
!LO:LB:g=original	!	!	!	!	!	!	!LO:LB:g=original	!
=14	=14	=14	=14	=14	=14	=14	=14	=14
8G\L	.	1ryy	8bn\L	.	8dd\L	.	8bn\	Ma-
8G\	.	.	8b\	.	8dd\	.	16b\	-ter
.	.	.	.	.	.	.	16b\	mi-
*	*	*	*	*	*	*	*Xtuplet	*
8F\	.	.	8b\	.	8dd\	.	24b\LL	-se-
.	.	.	.	.	.	.	24cc\	.
.	.	.	.	.	.	.	24dd\JJ	.
8F\J	.	.	8b\J	.	8dd\J	.	24ee\LL	-ri-
.	.	.	.	.	.	.	24ff\	.
.	.	.	.	.	.	.	24gg\JJ	.
8E\L	.	.	8cc\L	.	8ee\L	.	4cc\	-cor-
8E\	.	.	8cc\	.	8ee\	.	.	.
8C\	.	.	8cc\	.	8ee\	.	24cc\LL	.
.	.	.	.	.	.	.	24dd\	.
.	.	.	.	.	.	.	24ee\JJ	.
8C\J	.	.	8cc\J	.	8ee\J	.	24ee\LL	.
.	.	.	.	.	.	.	24ff\	.
.	.	.	.	.	.	.	24gg\JJ	.
=15	=15	=15	=15	=15	=15	=15	=15	=15
*	*	*	*2\right	*	*	*	*	*
*	*	*	*tremolo	*	*	*	*	*
8BBn/L	.	1ryy	8dd\L	.	8ff\L	.	4dd\	.
8BB/	.	.	8dd\	.	8ff\	.	.	.
8GG/	.	.	8dd\	.	8ff\	.	24dd\LL	.
.	.	.	.	.	.	.	24ee\	.
.	.	.	.	.	.	.	24ff\JJ	.
8GG/J	.	.	8dd\J	.	8ff\J	.	24aa\LL	.
.	.	.	.	.	.	.	24gg\	.
.	.	.	.	.	.	.	24ff\JJ	.
8C/L	.	.	8cc\L	.	8ee\L	.	16ee\	.
.	.	.	.	.	.	.	16dd\	-di-
!	!	!	!	!	!	!	!LO:SIC:s=ae	!
8C/	.	.	8cc\	.	8ee\	.	8cc\	-e
8C/	.	.	8cc\	.	8ee\	.	4r	.
8C/J	.	.	8cc\J	.	8ee\J	.	.	.
*	*	*	*Xtremolo	*	*	*	*	*
=16	=16	=16	=16	=16	=16	=16	=16	=16
8r	.	1ryy	8ee\L|	.	8gg'>\L	.	4gg\	vi-
8C\L	.	.	(>8ee\	.	(8gg\	.	.	.
8F\	.	.	8dd\	.	8ff\	.	16ff\LL	-ta
.	.	.	.	.	.	.	16ee\JJ	.
8A\J	.	.	8cc\J)	.	8ee\J)	.	16dd\LL	dul-
.	.	.	.	.	.	.	16cc\JJ	.
*	*	*	*tremolo	*	*	*	*	*
8G\L	.	.	8bn\L	.	8dd\L	.	16bn\LL	-ce-
.	.	.	.	.	.	.	16cc\JJ	.
8G\	.	.	8bn\	.	8dd\	.	4dd\	-do
8G\	.	.	8bn\	.	8dd\	.	.	.
8G\J	.	.	8bn\J	.	8dd\J	.	16ee\LL	et
.	.	.	.	.	.	.	16ff\JJ	.
*	*	*	*Xtremolo	*	*	*	*	*
=17	=17	=17	=17	=17	=17	=17	=17	=17
8r	.	1ryy	8ee\L|	.	8gg'>\L	.	4gg\	Spes
8C\L	.	.	(>8ee\	.	(>8gg\	.	.	.
8F\	.	.	8dd\	.	8ff\	.	16ff\LL	.
.	.	.	.	.	.	.	16ee\JJ	.
8A\J	.	.	8cc\J)	.	8ee\J)	.	16dd\LL	no-
.	.	.	.	.	.	.	16cc\JJ	-stra
!	!	!	!LO:LB:g=original	!	!	!	!	!
*	*	*	*tremolo	*	*	*	*	*
8G\L	.	.	8bn\L	.	8dd\L	.	16bn\LL	Sal-
.	.	.	.	.	.	.	16cc\JJ	.
!	!	!	!	!	!	!	!LO:LB:g=original	!
8G\	.	.	8bn\	.	8dd\	.	4.dd\	-ve
8G\	.	.	8bn\	.	8dd\	.	.	.
8G\J	.	.	8bn\J	.	8dd\J	.	.	.
*	*	*	*Xtremolo	*	*	*	*	*
=18	=18	=18	=18	=18	=18	=18	=18	=18
!	!	!	!LO:SIC:s=8b	!	!	!	!	!
8G\L	.	1ryy	8b-\L	.	8dd\L	.	4dd\	et
!	!	!	!LO:SIC:s=8b	!	!	!	!	!
8G\	.	.	8b-\	.	8dd\	.	.	.
8G\	.	.	8cc\	.	8ee\	.	4ee\	spes
8G\J	.	.	8cc\J	.	8ee\J	.	.	.
!	!	!	!	!	!LO:LB:g=original	!	!	!
8r	.	.	16f/LL	.	(>16dd\LL	.	16dd\LL	nos-
.	.	.	16e/	.	16cc\)	.	16ccn\	.
!LO:TX:a:t=P:problem:mixed beam	!	!	!	!	!	!	!LO:SIC:s=16b	!
8G\L	.	.	16d/	.	(>16bn\	.	16b-\	.
.	.	.	16f/JJ	.	16dd\JJ)	.	16dd\JJ	.
.	.	.	.	.	8qqdd/	.	.	.
8c\	.	.	4e/	.	4cc\	.	4cc\	-tra
8C/J	.	.	.	.	.	.	.	.
=19	=19	=19	=19	=19	=19	=19	=19	=19
!	!	!	!LO:SIC:s=8b	!	!	!	!	!
8G\L	.	1ryy	8b-\L	.	8dd\L	.	4dd\	nos-
!	!	!	!LO:SIC:s=8b	!	!	!	!	!
8G\	.	.	8b-\	.	8dd\	.	.	.
8G\	.	.	8cc\	.	8ee\	.	4ee\	-tra
8G\J	.	.	8cc\J	.	8ee\J	.	.	.
8r	.	.	16f/LL	.	(>16dd\LL	.	16dd\LL	.
.	.	.	16e/	.	16cc\)	.	16cc\	Sal-
!LO:TX:a:t=P:problem:mixed beam	!	!	!	!	!	!	!LO:SIC:s=16b	!
8G\L	.	.	16d/	.	(>16bn\	.	16b-\	.
.	.	.	16f/JJ	.	16dd\JJ)	.	16dd\JJ	.
.	.	.	.	.	8qqdd/	.	.	.
8c\	.	.	4e/	.	4cc\	.	4cc\	-ve
8C/J	.	.	.	.	.	.	.	.
=20	=20	=20	=20	=20	=20	=20	=20	=20
8r	.	1ryy	8r	.	8r	.	8cc\	et
8F\L	.	.	8cc\L	.	8aa\L	.	8aa\	spes
8E\	.	.	8cc\	.	(>8gg\	.	8gg\	nos-
8F\J	.	.	8cc\J	.	8aa\J)	.	8aa\	-tra
4G\	.	.	4cc\	.	(>16ee\LL	.	32ee\LLL	Sal-
.	.	.	.	.	.	.	32dd\JJ	.
.	.	.	.	.	16dd\J)	.	8.cc\J	.
.	.	.	.	.	8cc\J	.	.	.
4GG/	.	.	4bn\	.	4dd\	.	4dd\	.
=21	=21	=21	=21	=21	=21	=21	=21	=21
!	!	!	!	!	!	!LO:HP:a:i:t=for	!	!
!	!LO:HP:a:i:t=for	!	!	!LO:HP:a:i:t=for	!	!	!	!
!	!LO:DY:a	!	!	!LO:DY:a	!	!LO:DY:a	!	!
8C\L	f	1ryy	32cc\KLL	f	(>32cc\KLL	f	4cc\	-ve
.	.	.	16.ee\JJ	.	16.ee\JJ)	.	.	.
8C\	.	.	(>32cc\KLL	.	(>32cc\KLL	.	.	.
.	.	.	16.g\JJ)	.	16.g\JJ)	.	.	.
8C\	.	.	32e/KLL	.	(<32e/KLL	.	4r	.
.	.	.	16.c/JJ	.	16.c/JJ)	.	.	.
!	!	!	!LO:TX:a:t=P:problem:mixed beam	!	!LO:TX:a:t=P:problem:mixed beam	!	!	!
8C\J	.	.	16G/LL	.	(>32G/KLL	.	.	.
.	.	.	.	.	16.gg\JJ)	.	.	.
.	.	.	16ee\JJ	.	.	.	.	.
!LO:LB:g=original	!	!	!	!	!	!	!	!
!LO:TX:a:t=P:problem:mixed beam	!	!	!	!	!	!	!	!
8D\L	.	.	16dd\LL	.	(>16ff\LL	.	2r	.
.	.	.	16cc\J	.	16ee\J)	.	.	.
8GG/J	.	.	8dd\J	.	8ff\J	.	.	.
!LO:TX:a:t=P:problem:mixed beam	!	!	!	!	!	!	!	!
16GG/LL	.	.	4r	.	4r	.	.	.
16G\	.	.	.	.	.	.	.	.
16F#X\	.	.	.	.	.	.	.	.
16G\JJ	.	.	.	.	.	.	.	.
=22	=22	=22	=22	=22	=22	=22	=22	=22
!LO:TX:a:t=P:problem:mixed beam	!	!	!	!	!	!	!	!
8GG/L	.	1ryy	(>32bn\KLL	.	(>32bn\KLL	.	0r	.
.	.	.	16.dd\JJ)	.	16.dd\JJ)	.	.	.
8G\	.	.	(>32b\KLL	.	(>32b\KLL	.	.	.
.	.	.	16.g\JJ)	.	16.g\JJ)	.	.	.
8G\	.	.	32d/KLL	.	(<32d/KLL	.	.	.
!	!	!	!LO:SIC:s=16.B	!	!LO:SIC:s=16.B	!	!	!
.	.	.	16.B-/JJ	.	16.B-/JJ)	.	.	.
!	!	!	!LO:TX:a:t=P:problem:mixed beam	!	!LO:TX:a:t=P:problem:mixed beam	!	!	!
8G\J	.	.	32G/KLL	.	(>32G/KLL	.	.	.
.	.	.	16.dd\JJ	.	16.ff\JJ)	.	.	.
!LO:TX:a:t=P:problem:mixed beam	!	!	!	!	!	!	!	!
!	!	!	!LO:LB:g=original	!	!	!	!	!
8c\L	.	.	16cc\LL	.	(>16ee\LL	.	.	.
.	.	.	16bn\J	.	16dd\J)	.	.	.
8C/J	.	.	8cc\J	.	8ee\J	.	.	.
!LO:SIC:s=16c	!	!	!	!	!	!	!	!
!LO:N:vis=4	!	!	!	!	!	!	!	!
16C/	.	.	4r	.	4r	.	.	.
16c\LL	.	.	.	.	.	.	.	.
16Bn\	.	.	.	.	.	.	.	.
16c\JJ	.	.	.	.	.	.	.	.
=23	=23	=23	=23	=23	=23	=23	=23	=23
!	!	!	!	!	!LO:TX:a:t=P:problem:mixed beam	!	!	!
8C\L	.	1ryy	(<32c/KLL	.	(>32c/KLL	.	.	.
.	.	.	16.e/JJ)	.	16.cc\JJ)	.	.	.
!	!	!	!LO:TX:a:t=P:problem:mixed beam	!	!LO:TX:a:t=P:problem:mixed beam	!	!	!
8C\	.	.	32c/KLL	.	(>32e/KLL	.	.	.
.	.	.	16.cc\JJ	.	16.ee\JJ)	.	.	.
8C\	.	.	(<32g/KLL	.	32cc/KLL	.	.	.
.	.	.	16.e/JJ)	.	16.g/	.	.	.
8C\J	.	.	32c/KLL	.	32e/K	.	.	.
.	.	.	16.G/JJ	.	16.c/JJ	.	.	.
!LO:TX:a:t=P:problem:mixed beam	!	!	!	!	!	!	!	!
!	!	!	!	!	!LO:LB:g=original	!	!	!
8F\L	.	.	4aa\	.	4aa\	.	.	.
8F\	.	.	.	.	.	.	.	.
8G\	.	.	16gg\LL	.	(>16gg\LL	.	.	.
.	.	.	16ff\	.	16ff\)	.	.	.
8GG/J	.	.	16ee\	.	(>16ee\	.	.	.
.	.	.	16dd\JJ	.	16dd\JJ)	.	.	.
=24	=24	=24	=24	=24	=24	=24	=24	=24
!	!LO:HP:a:i:t=p:	!	!	!LO:HP:a:i:t=p:	!	!	!	!
!	!LO:DY:a	!	!LO:TX:a:t=P:problem:mixed beam	!LO:DY:a	!LO:TX:a:t=P:problem:mixed beam	!	!	!
8C\L	p	1ryy	8cc\L	p	(>8cc\L	.	1r	.
8C\	.	.	32c/KL	.	32e/KL)	.	.	.
.	.	.	16.cc\JJ	.	16.ee\JJ	.	.	.
8C\	.	.	32g/KLL	.	(>32cc\KLL	.	.	.
.	.	.	16.e/JJ	.	16.g\JJ)	.	.	.
8C\J	.	.	32c/KLL	.	32e/KLL	.	.	.
.	.	.	16.G/JJ	.	16.c/JJ	.	.	.
!	!	!	!	!LO:HP:a:i:t=f:	!	!LO:HP:a:i:t=f:	!	!
!	!LO:HP:a:i:t=for	!	!	!	!	!	!	!
!LO:TX:a:t=P:problem:mixed beam	!LO:DY:a	!	!	!LO:DY:a:rj	!	!LO:DY:a	!	!
8F\L	f	.	4aa\	f	4aa\	f	.	.
8F\	.	.	.	.	.	.	.	.
8G\	.	.	16gg\LL	.	(>16gg\LL	.	.	.
.	.	.	16ff\	.	16ff\)	.	.	.
8GG/J	.	.	16ee\	.	(>16ee\	.	.	.
.	.	.	16dd\JJ	.	16dd\JJ)	.	.	.
=25	=25	=25	=25	=25	=25	=25	=25	=25
!	!LO:HP:a:i:t=p:	!	!	!	!	!	!	!
!	!LO:DY:a	!	!LO:TX:a:t=P:problem:mixed beam	!LO:DY:a	!	!	!	!
!	!	!	!	!LO:HP:a:i:t=pia	!	!	!	!
8C\L	p	1ryy	8cc\L	p	(>32cc\KLL	.	8cc\	ad
.	.	.	.	.	16.ee\JJ)	.	.	.
8C\	.	.	8e/	.	(>32cc\KLL	.	4cc\	te
.	.	.	.	.	16.g\JJ)	.	.	.
8C\	.	.	8e/	.	32e/KLL	.	.	.
.	.	.	.	.	16.d/JJ	.	.	.
!	!	!	!	!	!LO:TX:a:t=P:problem:mixed beam	!	!	!
8C\J	.	.	8ee\J	.	(>32G/KLL	.	8gg\	cla-
.	.	.	.	.	16.gg\JJ)	.	.	.
!LO:TX:a:t=P:problem:mixed beam	!	!	!	!	!	!	!LO:LB:g=original	!
8D\L	.	.	16dd\LL	.	(>16ff\LL	.	16ff\LL	-ma-
.	.	.	16cc\J	.	16ee\J)	.	16ee\JJ	.
!	!LO:HP:a:i:t=for	!	!	!	!	!	!	!
!	!LO:DY:a	!	!	!	!	!	!	!
8GG/J	f	.	8dd\J	.	8ff\J	.	8ff\	-mus
!LO:TX:a:t=P:problem:mixed beam	!	!	!	!	!	!	!	!
16GG/LL	.	.	8dd\L	.	8ff\L	.	4r	.
16G\	.	.	.	.	.	.	.	.
16F#X\	.	.	8dd\J	.	8ff\J	.	.	.
16G\JJ	.	.	.	.	.	.	.	.
=26	=26	=26	=26	=26	=26	=26	=26	=26
!	!LO:DY:a	!	!	!	!	!	!	!
!	!LO:HP:a:i:t=p:	!	!	!	!	!	!	!
8G\L	p	1ryy	8bn\L	.	(>32bn\KLL	.	8bn\	ex-
.	.	.	.	.	16.dd\JJ)	.	.	.
!	!	!	!	!	!	!	!LO:SIC:s=-su-	!
8G\	.	.	8b\	.	(>32b\KLL	.	16b\	-u-
.	.	.	.	.	16.g\JJ)	.	.	.
!	!	!	!	!	!	!	!LO:SIC:s=-les	!
.	.	.	.	.	.	.	16b\	-tes
8G\	.	.	8b\	.	(<32d/KLL	.	8b\	fi-
!	!	!	!	!	!LO:SIC:s=16.B	!	!	!
.	.	.	.	.	16.B-/JJ)	.	.	.
!	!	!	!	!	!LO:TX:a:t=P:problem:mixed beam	!	!	!
8G\J	.	.	8dd\J	.	(>16G/LL	.	16ff\	-li-
.	.	.	.	.	16ff\JJ)	.	16ff\	-i
!LO:TX:a:t=P:problem:mixed beam	!	!	!	!	!	!	!LO:SIC:s=e-	!
8c\L	.	.	(>16cc\LL	.	16ee\LL	.	16ee\LL	eve-
.	.	.	16bn\J)	.	16dd\J	.	16dd\JJ	.
!	!	!	!	!	!	!	!LO:SIC:s=-vae	!
8C/J	.	.	8cc\J	.	8ee\J	.	8ee\	-e
!LO:TX:a:t=P:problem:mixed beam	!	!	!	!	!	!	!	!
16C/LL	.	.	8cc\L	.	8ee\L	.	4r	.
16c\	.	.	.	.	.	.	.	.
16Bn\	.	.	8cc\J	.	8ee\J	.	.	.
16c\JJ	.	.	.	.	.	.	.	.
!LO:LB:g=original	!	!	!LO:LB:g=original	!	!	!	!	!
=27	=27	=27	=27	=27	=27	=27	=27	=27
8F#X\	.	1ryy	8r	.	8r	.	8ee-X\	Ex-
!	!	!	!	!	!	!	!LO:SIC:s=-su-	!
8r	.	.	8cc\	.	8ee-X\	.	16ee-\	-u-
.	.	.	.	.	.	.	16ee-\	-les
8F#X\	.	.	8r	.	8r	.	8ee-\	fi-
8r	.	.	8cc\	.	8ee-\	.	16ee-\	-li-
.	.	.	.	.	.	.	16ee-\	-i
!	!	!	!	!	!	!	!LO:SIC:s=e-	!
8G\L	.	.	8r	.	8r	.	8ee-\	e-
!	!	!	!	!	!	!	!LO:SIC:s=-vae	!
8G\	.	.	8bn\L	.	8dd\L	.	8dd\	-ve
!	!	!	!	!	!	!	!LO:LB:g=original	!
8G\	.	.	8b\	.	8dd\	.	8.dd\L	E-
8G\J	.	.	8b\J	.	8dd\J	.	.	.
.	.	.	.	.	.	.	32ee-\LL	.
.	.	.	.	.	.	.	32ff\JJJ	.
=28	=28	=28	=28	=28	=28	=28	=28	=28
8C\L	.	1ryy	8cc\L	.	8een\L	.	8ee\L	.
8C\	.	.	8cc\	.	8ee\	.	16dd\L	.
.	.	.	.	.	.	.	16cc\JJ	.
8G\	.	.	8bn\	.	8dd\	.	8.dd\L	.
8G\J	.	.	8b\J	.	8dd\J	.	.	.
.	.	.	.	.	.	.	32ee\LL	.
.	.	.	.	.	.	.	32ff\JJJ	.
!LO:TX:a:t=P:problem:mixed beam	!	!	!	!	!	!	!	!
8C\L	.	.	8cc\L	.	8ee\L	.	24ee\LL	.
.	.	.	.	.	.	.	24aa\	.
!	!	!	!	!	!	!	!LO:TX:a:t=g	!
.	.	.	.	.	.	.	24gg\JJ	.
!	!	!	!	!	!LO:TX:a:t=P:problem:wytarty łuk	!	!	!
8F\	.	.	8dd\	.	(>8ff\	.	24ff\LL	.
.	.	.	.	.	.	.	24ee\	.
.	.	.	.	.	.	.	24dd\JJ	.
8G\	.	.	8cc\	.	8ee\	.	8cc\L	.
8GG/J	.	.	8b\J	.	8dd\J)	.	8dd\J	.
!	!	!	!	!	!LO:LB:g=original	!	!	!
=29	=29	=29	=29	=29	=29	=29	=29	=29
!	!	!	!	!	!	!	!LO:SIC:s=-vae	!
8C\L	.	1ryy	8cc\L	.	8ee\L	.	4cc\	-ve
8C\	.	.	8cc\	.	8ee\	.	.	.
!	!	!	!	!	!	!	!LO:SIC:s=ad	!
8A\	.	.	8cc#X\	.	8ee\	.	8gg\	at
8A\J	.	.	8cc#\J	.	8ee\J	.	8ee\	te
!LO:TX:a:t=P:problem:mixed beam	!	!	!	!	!	!	!	!
8A\L	.	.	8cc#\L	.	(>8ee\L	.	16cc#X\LL	ſus-
.	.	.	.	.	.	.	16bb-\JJ	.
8D\	.	.	8dd\	.	8ff\)	.	16aa\LL	-pi-
.	.	.	.	.	.	.	16dd\JJ	.
8A\	.	.	8cc#\	.	8ee'>\	.	4cc#X\	-ra-
8AA/J	.	.	8cc#\J	.	8ee'>\J	.	.	.
=30	=30	=30	=30	=30	=30	=30	=30	=30
8D\L	.	1ryy	8dd\L	.	8ff'>\L	.	4dd\	-mus
8D\	.	.	8dd\	.	8ff\	.	.	.
8G\	.	.	8bn\	.	8dd\	.	8ff\L	ge-
8G\J	.	.	8b\J	.	8dd\J	.	8dd\J	.
!LO:TX:a:t=P:problem:mixed beam	!	!	!	!	!	!	!	!
8G\L	.	.	8b\L	.	8dd\L	.	16bn\LL	-men-
.	.	.	.	.	.	.	16aa\JJ	.
8C\	.	.	8cc\	.	8ee\	.	16gg\	-tes
.	.	.	.	.	.	.	16cc\	et
.	.	.	.	.	.	.	8qqcc/	.
8G\	.	.	8b\	.	8dd'>\	.	4bn\	flen-
8GG/J	.	.	8b\J	.	8dd'>\J	.	.	.
!	!	!	!	!	!	!	!LO:LB:g=original	!
=31	=31	=31	=31	=31	=31	=31	=31	=31
8C\L	.	1ryy	8cc\L	.	8ee\L	.	4cc\	-tes
8C\	.	.	8cc\	.	8ee\	.	.	.
8C\	.	.	8b-X\	.	8ee\	.	4gg\	ge-
8C\J	.	.	8b-\J	.	8ee\J	.	.	.
8C\L	.	.	8g/L	.	8ee\L	.	16ee\LL	-men-
.	.	.	.	.	.	.	16ff\	.
8C\	.	.	8g/J	.	8ee\	.	16gg\	.
.	.	.	.	.	.	.	16ff\JJ	.
8C\	.	.	8b-\L	.	8gg\	.	16ee\LL	-tes
.	.	.	.	.	.	.	16dd\JJ	.
8C\J	.	.	8b-\J	.	8gg\J	.	16cc\LL	et
.	.	.	.	.	.	.	16b-\JJ	.
=32	=32	=32	=32	=32	=32	=32	=32	=32
!LO:TX:a:t=P:problem:mixed beam	!	!	!	!	!	!	!	!
8F\L	.	1ryy	8b-\L	.	8gg\L	.	8b-\	flen-
8FF/J	.	.	8a\J	.	8ff\J	.	8a\	-tes
4r	.	.	4r	.	4r	.	8ff\	in
.	.	.	.	.	.	.	8ff\	hac
8F\L	.	.	8a/L	.	(>32a\KLL	.	4.ff\	la-
.	.	.	.	.	16.ff\JJ)	.	.	.
8F\	.	.	32a/KL	.	(>32cc\KLL	.	.	.
.	.	.	16.ff/JJ	.	16.aa\JJ)	.	.	.
8F\	.	.	32cc\KLL	.	(>32ff\KLL	.	.	.
.	.	.	16.a\JJ	.	16.cc\JJ)	.	.	.
8F\J	.	.	32f/KLL	.	(>32a\KLL	.	8ff\	-cri-
.	.	.	16.c/JJ	.	16.f\JJ)	.	.	.
!	!	!	!LO:LB:g=original	!	!	!	!	!
=33	=33	=33	=33	=33	=33	=33	=33	=33
8BB-/L	.	1ryy	4b-\	.	4dd\	.	4dd\	-ma-
8BB-/	.	.	.	.	.	.	.	.
8C/	.	.	16a/LL	.	(>16cc\LL	.	16cc\LL	.
.	.	.	16g/	.	16b-\)	.	16b-\JJ	.
8C/J	.	.	16f/	.	(>16a\	.	16a\LL	-rum
.	.	.	16e/JJ	.	16g\JJ)	.	16g\JJ	.
!	!	!	!	!	!LO:TX:a:t=P:problem:mixed beam	!	!	!
8F\L	.	.	8f/L	.	32f/KLL	.	2ff\	val-
.	.	.	.	.	16.ff\JJ	.	.	.
8F\	.	.	32a/KL	.	(32cc\KLL	.	.	.
.	.	.	16.ff/JJ	.	16.aa\JJ)	.	.	.
!	!	!	!LO:SIC:s=lub cc	!	!	!	!	!
8F\	.	.	(>32b-\KLL	.	(32ff\KLL	.	.	.
.	.	.	16.a\JJ)	.	16.cc\JJ)	.	.	.
8F\J	.	.	32f/KLL	.	(32a\KLL	.	.	.
.	.	.	16.c/JJ	.	16.f\JJ)	.	.	.
!LO:LB:g=original	!	!	!	!	!	!	!	!
=34	=34	=34	=34	=34	=34	=34	=34	=34
8BB-/L	.	1ryy	4b-\	.	4dd\	.	4dd\	.
8BB-/	.	.	.	.	.	.	.	.
8C/	.	.	16a/LL	.	(16cc\LL	.	16cc\LL	.
.	.	.	16g/	.	16b-\)	.	16b-\	.
8C/J	.	.	16f/	.	(16a\	.	16a\	.
.	.	.	16e/JJ	.	16g\JJ)	.	16g\JJ	.
!	!	!	!LO:TX:a:t=P:problem:mixed beam	!	!	!	!	!
!	!	!	!	!LO:HP:a:i:t=for	!	!	!	!
!	!	!	!	!LO:DY:a	!LO:TX:a:t=P:problem:mixed beam	!	!	!
4F\	.	.	32f/KLL	f	32f/KLL	.	4f/	-le
.	.	.	16.aa\JJ	.	16.aa\JJ	.	.	.
.	.	.	32ff\KLL	.	(>32ff\KLL	.	.	.
.	.	.	16.cc\JJ	.	16.cc\JJ)	.	.	.
8r	.	.	(<32a/KLL	.	(>32a\KLL	.	4r	.
.	.	.	16.f/JJ)	.	16.f\JJ)	.	.	.
8BBn/	.	.	32c/KLL	.	(<16c/LL	.	.	.
.	.	.	16.B-/JJ	.	.	.	.	.
.	.	.	.	.	16B-/JJ)	.	.	.
!	!	!	!	!	!LO:LB:g=original	!	!	!
=35	=35	=35	=35	=35	=35	=35	=35	=35
8C/L	.	1ryy	8c/L	.	8c/L	.	8r	.
8D/	.	.	8d/	.	8d/	.	16b-\	la-
.	.	.	.	.	.	.	16b-\	-cri-
!	!	!	!	!	!	!	!LO:LB:g=original	!
8C/	.	.	8c/	.	8c/	.	8a\	-ma-
!	!	!	!	!	!LO:SIC:s=8B	!	!LO:SIC:s=8b	!
8BBn/J	.	.	8Bn/J	.	8B-/J	.	8g\	-rum
*	*	*	*2\right	*	*2\right	*	*	*
2C;>/	.	.	2c;>/	.	2c/	.	4f/	val-
.	.	.	.	.	.	.	4g/	.
!	!	!	!LO:TX:t=[Dal segno]	!	!	!	!	!
!	!	!	!LO:LB:g=original	!	!	!	!	!
=36	=36	=36	=36	=36	=36	=36	=36	=36
!	!LO:HP:a:i:t=for	!	!LO:TX:i:a:t=Dal segno	!	!	!LO:HP:a:i:t=f:	!	!
!	!LO:DY:a	!	!LO:TX:a:t=P:problem:Dal segno (napis) na pięciolinii	!	!	!LO:DY:a	!	!
!	!	!	!LO:TX:a:t=P:problem:Dal segno, ale ze względu na pozostałe głosy wklejam odpowiedni fragment	!	!	!	!	!
8F\L	f	1ryy	(>32ff\KLL	.	32ff\KLL	f	4f/	-le
.	.	.	16.aa\)	.	16.aa\JJ	.	.	.
8F\	.	.	(>32ff\K	.	(>32ff\KLL	.	.	.
.	.	.	16.cc\JJ)	.	16.cc\JJ)	.	.	.
8F\	.	.	32a/KLL	.	(>32a\KLL	.	4r	.
.	.	.	16.f/	.	16.f\JJ)	.	.	.
!	!	!	!	!	!LO:TX:a:t=P:problem:mixed beam	!	!	!
8F\J	.	.	32c/K	.	32c/KLL	.	.	.
.	.	.	16.a/JJ	.	16.cc\JJ	.	.	.
8G\L	.	.	16g/LL	.	(>16b-\LL	.	2r	.
.	.	.	16f/J	.	16a\J)	.	.	.
8C\J	.	.	8g/J	.	8b-\J	.	.	.
16C\LL	.	.	4r	.	4r	.	.	.
16c\	.	.	.	.	.	.	.	.
16Bn\	.	.	.	.	.	.	.	.
16c\JJ	.	.	.	.	.	.	.	.
=37	=37	=37	=37	=37	=37	=37	=37	=37
8C\L	.	1ryy	32ee\KLL	.	(>32ee\KLL	.	00r	.
.	.	.	16.gg\	.	16.gg\JJ)	.	.	.
8C\	.	.	32ee\K	.	(>32ee\KLL	.	.	.
.	.	.	16.cc\JJ	.	16.cc\JJ)	.	.	.
8C\	.	.	32b-/KLL	.	(>32b-\KLL	.	.	.
.	.	.	16.g/JJ	.	16.g\JJ)	.	.	.
!	!	!	!	!	!LO:TX:a:t=P:problem:mixed beam	!	!	!
8C\J	.	.	32c/KLL	.	(>32c/KLL	.	.	.
.	.	.	16.g/JJ	.	16.b-\JJ)	.	.	.
8F\L	.	.	(<16f/LL	.	16a\LL	.	.	.
.	.	.	16e/J)	.	16g\J	.	.	.
8F\J	.	.	8f/J	.	8a\J	.	.	.
!LO:TX:a:t=P:problem:mixed beam	!	!	!	!	!	!	!	!
16FF/LL	.	.	4r	.	4r	.	.	.
16F\	.	.	.	.	.	.	.	.
16E\	.	.	.	.	.	.	.	.
16F\JJ	.	.	.	.	.	.	.	.
=38	=38	=38	=38	=38	=38	=38	=38	=38
!LO:SIC:t=8G	!	!	!	!	!	!	!	!
!LO:N:vis=16	!	!	!	!	!	!	!	!
8G\L	.	1ryy	8bn\L	.	8bn\L	.	.	.
!LO:SIC:t=8G	!	!	!	!	!	!	!	!
!LO:N:vis=16	!	!	!	!	!	!	!	!
8G\	.	.	8b\J	.	8b\J	.	.	.
!LO:SIC:t=8F	!	!	!	!	!	!	!	!
!LO:N:vis=16	!	!	!	!	!	!	!	!
8F\	.	.	24b\LL	.	24b\LL	.	.	.
.	.	.	24cc\	.	24cc\	.	.	.
.	.	.	24dd\JJ	.	24dd\JJ	.	.	.
!LO:SIC:t=8F	!	!	!	!	!	!	!	!
!LO:N:vis=16	!	!	!	!	!LO:TUP:a:problem:klamra łukowa, kropka zamiast numeru	!	!	!
8F\J	.	.	24ee\LL	.	24ee\LL	.	.	.
.	.	.	24ff\	.	24ff\	.	.	.
.	.	.	24gg\JJ	.	24gg\JJ	.	.	.
8E\L	.	.	8cc\L	.	8cc'>\L	.	.	.
8E\	.	.	8cc\J	.	8cc'>\J	.	.	.
8C\	.	.	24cc\LL	.	24cc\LL	.	.	.
.	.	.	24dd\	.	24dd\	.	.	.
.	.	.	24ee\JJ	.	24ee\JJ	.	.	.
!	!	!	!	!	!LO:TUP:a:problem:klamra łukowa, kropka zamiast numeru	!	!	!
8C\J	.	.	24ee\LL	.	24ee'>\LL	.	.	.
.	.	.	24ff\	.	24ff\	.	.	.
.	.	.	24gg\JJ	.	24gg'>\JJ	.	.	.
=39	=39	=39	=39	=39	=39	=39	=39	=39
8BBn/L	.	1ryy	8dd\L	.	8dd'>\L	.	.	.
8BB/	.	.	8dd\J	.	8dd'>\J	.	.	.
!	!	!	!	!	!LO:TUP:a:problem:klamra łukowa, kropka zamiast numeru	!	!	!
8GG/	.	.	24dd\LL	.	24dd\LL	.	.	.
.	.	.	24ee\	.	24ee\	.	.	.
.	.	.	24ff\JJ	.	24ff\JJ	.	.	.
!	!	!	!	!	!LO:TUP:a:problem:klamra łukowa, kropka zamiast numeru	!	!	!
8GG/J	.	.	24ee\LL	.	24aa\LL	.	.	.
.	.	.	24dd\	.	24gg\	.	.	.
.	.	.	24cc\JJ	.	24ff'>\JJ	.	.	.
8C\L	.	.	8cc\L	.	8ee\L	.	.	.
8C\	.	.	8cc\J	.	8ee\J	.	.	.
8F#X\	.	.	4cc\	.	4ee\	.	.	.
8F#\J	.	.	.	.	.	.	.	.
=40	=40	=40	=40	=40	=40	=40	=40	=40
8G\L	.	1ryy	8bn/L	.	8dd\L	.	.	.
8G\	.	.	8a/J	.	8ff\J	.	.	.
!	!	!	!	!	!LO:LB:g=original	!	!	!
8G\	.	.	(<16g/LL	.	(>16ee\LL	.	.	.
.	.	.	16f/)	.	16dd\)	.	.	.
8G\J	.	.	(<16e/	.	(>16cc\	.	.	.
!	!	!	!	!	!LO:SIC:s=lub 16b-X	!	!	!
.	.	.	16d/JJ)|	.	16bn\JJ)	.	.	.
8G\L	.	.	8e/L	.	16cc\LL	.	.	.
.	.	.	.	.	16g\J	.	.	.
8G\J	.	.	8a/J	.	8ff\J	.	.	.
!LO:LB:g=original	!	!	!	!	!	!	!	!
8G\L	.	.	16g/LL	.	(>16ee\LL	.	.	.
.	.	.	16f/	.	16dd\)	.	.	.
8G\J	.	.	16e/	.	(>16cc\	.	.	.
.	.	.	16d/JJ	.	16b\JJ)	.	.	.
=41	=41	=41	=41	=41	=41	=41	=41	=41
!	!	!	!LO:TX:a:t=P:problem:mixed beam	!	!	!	!	!
8C\L	.	1ryy	8e/L	.	8cc\L	.	0r	.
8C\	.	.	8gg\J	.	8gg\J	.	.	.
!	!	!	!	!	!LO:TUP:a:problem:klamra łukowa, kropka zamiast numeru	!	!	!
8C\	.	.	24gg\LL|	.	24gg\L	.	.	.
.	.	.	24ff\|	.	24ff\	.	.	.
.	.	.	24ee\JJ|	.	24ee\J	.	.	.
!	!	!	!	!	!LO:TUP:a:problem:klamra łukowa, kropka zamiast numeru	!	!	!
8C\J	.	.	24dd\LL|	.	24dd\L	.	.	.
.	.	.	24cc\|	.	24cc\	.	.	.
.	.	.	24b-\JJ|	.	24b-\J	.	.	.
!	!	!	!LO:TX:a:t=P:problem:mixed beam	!	!	!	!	!
8F\L	.	.	8a/L	.	32a\KLL	.	.	.
.	.	.	.	.	16.ff\JJ	.	.	.
8F\	.	.	16a/L	.	(>16cc\LL	.	.	.
.	.	.	16ff\JJ	.	16aa\JJ)	.	.	.
8F\	.	.	32cc\KLL	.	(>16ff\LL	.	.	.
.	.	.	16.a\JJ	.	.	.	.	.
.	.	.	.	.	16cc\JJ)	.	.	.
8F\J	.	.	32f/KLL	.	(>16a\LL	.	.	.
.	.	.	16.c/JJ	.	.	.	.	.
.	.	.	.	.	16f\JJ)	.	.	.
=42	=42	=42	=42	=42	=42	=42	=42	=42
8BB-/L	.	1ryy	4dd\	.	4dd\	.	.	.
8BB-/	.	.	.	.	.	.	.	.
8C/	.	.	16cc\LL	.	(>16cc\LL	.	.	.
.	.	.	16b-\	.	16b-\)	.	.	.
8C/J	.	.	16a\	.	(>16a\	.	.	.
.	.	.	16g\JJ	.	16g\JJ)	.	.	.
!	!LO:HP:a:i:t=p:	!	!	!	!	!	!	!
!	!LO:DY:a	!	!LO:TX:a:t=P:problem:mixed beam	!	!LO:TX:a:t=P:problem:mixed beam	!	!	!
8F\L	p	.	8a/L	.	(>32f/KLL	.	.	.
.	.	.	.	.	16.ff\JJ)	.	.	.
8F\	.	.	16a/L	.	32cc\KLL	.	.	.
.	.	.	.	.	16.aa\JJ	.	.	.
.	.	.	16ff\JJ	.	.	.	.	.
8F\	.	.	32cc\KLL	.	(>32ff\KLL	.	.	.
.	.	.	16.a\JJ	.	16.cc\JJ)	.	.	.
8F\J	.	.	32f/KLL	.	(>32a\KLL	.	.	.
.	.	.	16.c/JJ	.	16.f\JJ)	.	.	.
=43	=43	=43	=43	=43	=43	=43	=43	=43
8BB-/L	.	1ryy	4dd\	.	4dd\	.	1r	.
8BB-/	.	.	.	.	.	.	.	.
8C/	.	.	16cc\LL	.	(>16cc\LL	.	.	.
.	.	.	16b-\	.	16b-\)	.	.	.
8C/J	.	.	16a\	.	(>16a\	.	.	.
.	.	.	16g\JJ	.	16g\JJ)	.	.	.
8F\L	.	.	8f'</L	.	8f'</L	.	.	.
16F\L	.	.	16f'</L	.	16f'</L	.	.	.
16F\JJ	.	.	16f'</JJ	.	16f'</JJ	.	.	.
4F\	.	.	4f;;>/	.	4f/	.	.	.
!LO:TX:a:t=P:problem:podwójna kreska taktowa z obustronną repetycją	!	!	!	!	!LO:TX:a:t=P:problem:podwójna kreska taktowa z obustronną repetycją	!	!	!
!LO:LB:g=original	!	!	!	!	!LO:LB:g=original	!	!	!
=44||;>	=44||	=44||	=44||	=44||	=44||;>	=44||	=44||	=44||
*	*	*	*	*	*	*	*clefC1	*
*	*	*	*	*	*	*	*k[b-]	*
*M2/4	*	*M2/4	*M2/4	*	*M2/4	*	*M2/4	*
!LO:TX:i:a:t=All(egr)o&colon;	!	!	!LO:TX:i:a:t=All(egr)o	!	!LO:TX:i:a:t=All(egr)o	!	!LO:TX:i:a:t=All(egr)o	!
!LO:TX:i:b:t=Eia ergo	!	!	!LO:TX:i:b:t=Eia Ergo	!	!LO:TX:i:b:t=Eia Ergo	!	!LO:N:vis=00	!
8F\L	.	2ryy	4ff\	.	4ff\	.	0r	.
8G\	.	.	.	.	.	.	.	.
8A\	.	.	4ff\	.	4ff\	.	.	.
8G\J	.	.	.	.	.	.	.	.
=45	=45	=45	=45	=45	=45	=45	=45	=45
!	!	!	!LO:TX:a:t=P:problem:mixed beam	!	!LO:TX:a:t=P:problem:mixed beam	!	!	!
4F\	.	2ryy	16ff\LL	.	16ff\LL	.	.	.
.	.	.	16f/	.	16f/	.	.	.
.	.	.	16g/	.	16g/	.	.	.
.	.	.	16a/JJ	.	16a/JJ	.	.	.
4r	.	.	16b-\LL	.	16b-\LL	.	.	.
.	.	.	16cc\	.	16cc\	.	.	.
.	.	.	16dd\	.	16dd\	.	.	.
.	.	.	16ee\JJ	.	16ee\JJ	.	.	.
=46	=46	=46	=46	=46	=46	=46	=46	=46
!	!	!	!LO:TX:a:t=P:problem:mixed beam	!	!LO:TX:a:t=P:problem:mixed beam	!	!	!
4F\	.	2ryy	16ff\LL	.	16ff\LL	.	.	.
.	.	.	16f/	.	16f/	.	.	.
.	.	.	16g/	.	16g/	.	.	.
.	.	.	16a/JJ	.	16a/JJ	.	.	.
4r	.	.	16b-\LL	.	16b-\LL	.	.	.
.	.	.	16cc\	.	16cc\	.	.	.
.	.	.	16dd\	.	16dd\	.	.	.
.	.	.	16ee\JJ	.	16ee\JJ	.	.	.
=47	=47	=47	=47	=47	=47	=47	=47	=47
8F\L	.	2ryy	8ff\L	.	8ff\L	.	.	.
8F\	.	.	8a\J	.	8cc\J	.	.	.
8F\	.	.	4b-\	.	4dd\	.	.	.
8F\J	.	.	.	.	.	.	.	.
=48	=48	=48	=48	=48	=48	=48	=48	=48
!	!	!	!	!	!	!	!LO:N:vis=00	!
8F\L	.	2ryy	8a/L	.	8cc\L	.	0r	.
8F\	.	.	8f/J	.	8a\J	.	.	.
8F\	.	.	4g/	.	4b-\	.	.	.
8F\J	.	.	.	.	.	.	.	.
=49	=49	=49	=49	=49	=49	=49	=49	=49
8F\L	.	2ryy	8f/L	.	8a\L	.	.	.
8F\	.	.	8A/J	.	8f\J	.	.	.
8C\	.	.	4B-/	.	4g\	.	.	.
8C\J	.	.	.	.	.	.	.	.
=50	=50	=50	=50	=50	=50	=50	=50	=50
8F\L	.	2ryy	4A/	.	4f/	.	.	.
8G\	.	.	.	.	.	.	.	.
8A\	.	.	8r	.	8r	.	.	.
8F\J	.	.	8cc\	.	8cc\	.	.	.
=51	=51	=51	=51	=51	=51	=51	=51	=51
4BB-/	.	2ryy	16dd\LL	.	16dd\LL	.	.	.
.	.	.	16b-\	.	16b-\	.	.	.
.	.	.	16cc\	.	16cc\	.	.	.
.	.	.	16dd\JJ	.	16dd\JJ	.	.	.
4r	.	.	16ee\LL	.	16ee\LL	.	.	.
.	.	.	16ff\	.	16ff\	.	.	.
.	.	.	16gg\	.	16gg\	.	.	.
.	.	.	16aa\JJ	.	16aa\JJ	.	.	.
=52	=52	=52	=52	=52	=52	=52	=52	=52
!	!	!	!	!	!	!	!LO:N:vis=00	!
8BB-/L	.	2ryy	8bb-\L	.	8bb-\L	.	0rcc	.
8C/	.	.	8dd\J	.	8dd\J	.	.	.
8D/	.	.	4dd\	.	4dd\	.	.	.
8BB-/J	.	.	.	.	.	.	.	.
=53	=53	=53	=53	=53	=53	=53	=53	=53
4F\	.	2ryy	16cc\LL	.	16cc\LL	.	.	.
.	.	.	16a\	.	16a\	.	.	.
.	.	.	16b-\	.	16b-\	.	.	.
.	.	.	16cc\JJ	.	16cc\JJ	.	.	.
4r	.	.	16dd\LL	.	16dd\LL	.	.	.
.	.	.	16ee\	.	16ee\	.	.	.
.	.	.	16ff\	.	16ff\	.	.	.
.	.	.	16gg\JJ	.	16gg\JJ	.	.	.
=54	=54	=54	=54	=54	=54	=54	=54	=54
8F\L	.	2ryy	8aa\L	.	8aa\L	.	.	.
8G\	.	.	8cc\J	.	8cc\J	.	.	.
8A\	.	.	4cc\	.	4cc\	.	.	.
8F\J	.	.	.	.	.	.	.	.
!	!	!	!LO:LB:g=original	!	!	!	!	!
=55	=55	=55	=55	=55	=55	=55	=55	=55
4G\	.	2ryy	16b-\LL	.	16b-\LL	.	.	.
.	.	.	16g\	.	16g\	.	.	.
.	.	.	16a\	.	16a\	.	.	.
.	.	.	16b-\JJ	.	16b-\JJ	.	.	.
4r	.	.	16cc\LL	.	8cc\	.	.	.
.	.	.	16dd\	.	.	.	.	.
!	!	!	!	!	!LO:LB:g=original	!	!	!
.	.	.	16ee\	.	16ee\L	.	.	.
.	.	.	16ff\JJ	.	16ff\J	.	.	.
=56	=56	=56	=56	=56	=56	=56	=56	=56
!	!	!	!LO:TX:a:t=P:problem:mixed beam	!	!	!	!	!
!	!	!	!	!	!	!	!LO:N:vis=00	!
8C\L	.	2ryy	8gg\L	.	8gg\L	.	0rcc	.
8D\	.	.	8b-/J	.	8b-\J	.	.	.
8E\	.	.	4b-/	.	4b-\	.	.	.
8C\J	.	.	.	.	.	.	.	.
=57	=57	=57	=57	=57	=57	=57	=57	=57
4F\	.	2ryy	16a/LL	.	16a/LL	.	.	.
.	.	.	16f/	.	16f/	.	.	.
.	.	.	16g/	.	16g/	.	.	.
.	.	.	16a/JJ	.	16a/JJ	.	.	.
4r	.	.	16b-\LL	.	16b-\LL	.	.	.
.	.	.	16cc\	.	16cc\	.	.	.
.	.	.	16dd\	.	16dd\	.	.	.
.	.	.	16ee\JJ	.	16ee\JJ	.	.	.
=58	=58	=58	=58	=58	=58	=58	=58	=58
!LO:TX:a:t=P:problem:ten takt nie jest uwzględniony w partyturze	!	!	!	!	!LO:TX:a:t=P:problem:ten takt nie jest uwzględniony w partyturze	!	!	!
2ryy	.	2ryy	16a/LL	.	2ryy	.	.	.
.	.	.	16f/	.	.	.	.	.
.	.	.	16g/	.	.	.	.	.
.	.	.	16a/JJ	.	.	.	.	.
.	.	.	16b-\LL	.	.	.	.	.
.	.	.	16cc\	.	.	.	.	.
.	.	.	16dd\	.	.	.	.	.
.	.	.	16ee\JJ	.	.	.	.	.
=59	=59	=59	=59	=59	=59	=59	=59	=59
8F\L	.	2ryy	4ff\	.	4ff\	.	.	.
8G\	.	.	.	.	.	.	.	.
8A\	.	.	4a/	.	4a/	.	.	.
8F\J	.	.	.	.	.	.	.	.
!LO:LB:g=original	!	!	!	!	!	!	!	!
=60	=60	=60	=60	=60	=60	=60	=60	=60
!LO:TX:a:t=P:problem:mixed beam	!	!	!	!	!	!	!	!
!	!	!	!	!	!	!	!LO:N:vis=00	!
8c\L	.	2ryy	8a/L	.	8a/L	.	0r	.
8C/	.	.	8g/J	.	8g/J	.	.	.
8E/	.	.	8r	.	8r	.	.	.
8C/J	.	.	8g/	.	8g/	.	.	.
=61	=61	=61	=61	=61	=61	=61	=61	=61
!LO:TX:a:t=P:problem:takty 61-63 repetycja	!	!	!LO:TX:a:t=P:problem:takty 61-63 repetycja	!	!LO:TX:a:t=P:problem:takty 61-63 repetycja	!	!	!
!	!	!	!LO:TUP:b:problem:klamra łukowa, kropka zamiast numeru	!	!	!	!	!
8F\L	.	2ryy	12a/L	.	12a/L	.	.	.
.	.	.	12g/	.	12g/	.	.	.
8F\	.	.	.	.	.	.	.	.
.	.	.	12f/J	.	12f/J	.	.	.
8F\	.	.	8f/L	.	8f/L	.	.	.
8F\J	.	.	8f/J	.	8f/J	.	.	.
=62	=62	=62	=62	=62	=62	=62	=62	=62
!	!	!	!LO:TUP:b:problem:klamra łukowa, kropka zamiast numeru	!	!	!	!	!
8D\L	.	2ryy	12a/L	.	12a/L	.	.	.
.	.	.	12g/	.	12g/	.	.	.
8D\	.	.	.	.	.	.	.	.
.	.	.	12f/J	.	12f/J	.	.	.
8D\	.	.	8f/L	.	8f/L	.	.	.
8D\J	.	.	8f/J	.	8f/J	.	.	.
=63	=63	=63	=63	=63	=63	=63	=63	=63
8BB-/L	.	2ryy	16ee\LL	.	16ee\LL	.	.	.
.	.	.	16ff\	.	16ff\	.	.	.
8BB-/	.	.	16gg\	.	16gg\	.	.	.
.	.	.	16ff\JJ	.	16ff\JJ	.	.	.
8C/	.	.	16ee\LL	.	16ee\LL	.	.	.
.	.	.	16dd\	.	16dd\	.	.	.
8C/J	.	.	16cc\	.	16cc\	.	.	.
.	.	.	16b-\JJ	.	16b-\JJ	.	.	.
=64	=64	=64	=64	=64	=64	=64	=64	=64
!	!	!	!	!	!	!	!LO:N:vis=00	!
!	!	!	!LO:TUP:b:problem:klamra łukowa, kropka zamiast numeru	!	!	!	!	!
8F\L	.	2ryy	12a/L	.	12a/L	.	0r	.
.	.	.	12g/	.	12g/	.	.	.
8F\	.	.	.	.	.	.	.	.
.	.	.	12f/J	.	12f/J	.	.	.
8F\	.	.	8f/L	.	8f/L	.	.	.
8F\J	.	.	8f/J	.	8f/J	.	.	.
=65	=65	=65	=65	=65	=65	=65	=65	=65
!	!	!	!LO:TUP:b:problem:klamra łukowa, kropka zamiast numeru	!	!	!	!	!
8D\L	.	2ryy	12a/L	.	12a/L	.	.	.
.	.	.	12g/	.	12g/	.	.	.
8D\	.	.	.	.	.	.	.	.
.	.	.	12f/J	.	12f/J	.	.	.
8D\	.	.	8f/L	.	8f/L	.	.	.
8D\J	.	.	8f/J	.	8f/J	.	.	.
=66	=66	=66	=66	=66	=66	=66	=66	=66
8BB-/L	.	2ryy	16ee\LL	.	16ee\LL	.	.	.
.	.	.	16ff\	.	16ff\	.	.	.
8BB-/	.	.	16gg\	.	16gg\	.	.	.
.	.	.	16ff\JJ	.	16ff\JJ	.	.	.
8C/	.	.	16ee\LL	.	16ee\LL	.	.	.
.	.	.	16dd\	.	16dd\	.	.	.
8C/J	.	.	16cc\	.	16cc\	.	.	.
.	.	.	16b-\JJ	.	16b-\JJ	.	.	.
=67	=67	=67	=67	=67	=67	=67	=67	=67
!	!	!	!LO:TX:a:t=P:problem:mixed beam	!	!	!	!	!
8F\L	.	2ryy	16a/LL	.	16a\LL	.	.	.
.	.	.	16aa\J	.	16aa\J	.	.	.
8F\	.	.	8ff\J	.	8ff\J	.	.	.
8F\	.	.	8cc\L	.	8cc\L	.	.	.
8F\J	.	.	16ff\L	.	16ff\L	.	.	.
.	.	.	16cc\JJ	.	16cc\JJ	.	.	.
=68	=68	=68	=68	=68	=68	=68	=68	=68
!	!	!	!	!	!	!	!LO:N:vis=0	!
8F\L	.	2ryy	8a\L	.	8a\L	.	1rcc	.
8F\	.	.	16cc\L	.	16cc\L	.	.	.
.	.	.	16a\JJ	.	16a\JJ	.	.	.
8F\	.	.	8f/L	.	8f/L	.	.	.
8F\J	.	.	16a/L	.	16a/L	.	.	.
.	.	.	16f/JJ	.	16f/JJ	.	.	.
!	!	!	!LO:LB:g=original	!	!	!	!	!
=69	=69	=69	=69	=69	=69	=69	=69	=69
4C\	.	2ryy	4c/	.	4c/	.	.	.
4C\	.	.	4g/	.	4g/	.	.	.
=70	=70	=70	=70	=70	=70	=70	=70	=70
!	!	!	!LO:TX:a:t=P:problem:mixed beam	!	!LO:TX:a:t=P:problem:mixed beam	!	!	!
!	!	!	!	!	!	!	!LO:N:vis=1	!
8F\L	.	2ryy	8f/L	.	8f/L	.	2ree	.
8F\	.	.	8ff\	.	8ff\	.	.	.
8F\	.	.	8cc\	.	8cc\	.	.	.
8F\J	.	.	8a\J	.	8a\J	.	.	.
=71	=71	=71	=71	=71	=71	=71	=71	=71
!LO:TX:a:t=P:problem:segno	!	!	!	!	!	!	!	!
4F;;>\	.	2ryy	4f;>/	.	4f;>/	.	2ryy	.
4r	.	.	4r	.	4r	.	.	.
!	!	!	!	!	!LO:LB:g=original	!	!	!
=72	=72	=72	=72	=72	=72	=72	=72	=72
!	!LO:HP:a:i:t=p:	!	!	!	!	!	!	!
!	!LO:DY:a	!	!	!LO:DY:a:rj	!	!	!	!
8F\L	p	2ryy	4f/ 4cc 4ff	p	4f/ 4cc 4ff	.	4ff\	E-
8G\	.	.	.	.	.	.	.	.
8A\	.	.	4f/ 4cc 4ff	.	4f/ 4cc 4ff	.	4ff\	-ia
8G\J	.	.	.	.	.	.	.	.
=73	=73	=73	=73	=73	=73	=73	=73	=73
!	!	!	!	!	!	!	!LO:TX:a:t=P:problem:mixed beam	!
4F\	.	2ryy	4f/ 4cc 4ff	.	4f/ 4cc 4ff	.	16ff\LL	er-
.	.	.	.	.	.	.	16f/	.
.	.	.	.	.	.	.	16g/	.
.	.	.	.	.	.	.	16a/JJ	.
4r	.	.	4r	.	4r	.	16b-\LL	.
.	.	.	.	.	.	.	16cc\	.
.	.	.	.	.	.	.	16dd\	.
.	.	.	.	.	.	.	16ee\JJ	.
=74	=74	=74	=74	=74	=74	=74	=74	=74
!	!	!	!	!	!	!	!LO:TX:a:t=P:problem:mixed beam	!
4F\	.	2ryy	4f/ 4cc 4ff	.	4f/ 4cc 4ff	.	16ff\LL	.
.	.	.	.	.	.	.	16f/	.
.	.	.	.	.	.	.	16g/	.
.	.	.	.	.	.	.	16a/JJ	.
4r	.	.	4r	.	4r	.	16b-\LL	.
.	.	.	.	.	.	.	16cc\	.
.	.	.	.	.	.	.	16dd\	.
.	.	.	.	.	.	.	16ee\JJ	.
!	!	!	!	!	!	!	!LO:LB:g=original	!
=75	=75	=75	=75	=75	=75	=75	=75	=75
*2\right	*	*	*	*	*	*	*	*
*tremolo	*	*	*	*	*	*	*	*
8F\L	.	2ryy	8f/ 8cc 8ff	.	8f/ 8cc 8ff	.	8ff\L	.
8F\	.	.	8a/	.	8cc\	.	8cc\J	-go
8F\	.	.	4b-\	.	4dd\	.	4dd\	.
8F\J	.	.	.	.	.	.	.	.
=76	=76	=76	=76	=76	=76	=76	=76	=76
8F\L	.	2ryy	8a/L	.	8cc\L	.	8cc\L	ad-
8F\	.	.	8f/J	.	8a\J	.	8a\J	.
8F\	.	.	4g/	.	4b-\	.	4b-\	-vo-
8F\J	.	.	.	.	.	.	.	.
*Xtremolo	*	*	*	*	*	*	*	*
=77	=77	=77	=77	=77	=77	=77	=77	=77
8F\L	.	2ryy	8f/L	.	8a\L	.	8a\	-ca-
8F\	.	.	8A/J	.	8f\J	.	8f/	-ta
8C\	.	.	4B-/	.	4g\	.	4g\	nos-
8C\J	.	.	.	.	.	.	.	.
!LO:LB:g=original	!	!	!	!	!	!	!	!
=78	=78	=78	=78	=78	=78	=78	=78	=78
8F\L	.	2ryy	4A/	.	4f/	.	4f/	-tra
8G\	.	.	.	.	.	.	.	.
8A\	.	.	8r	.	8r	.	8r	.
8F\J	.	.	8a/	.	8cc\	.	8cc\	il-
=79	=79	=79	=79	=79	=79	=79	=79	=79
4BB-/	.	2ryy	4f/	.	4dd\	.	16dd\LL	.
.	.	.	.	.	.	.	16b-\	.
.	.	.	.	.	.	.	16cc\	.
.	.	.	.	.	.	.	16dd\JJ	.
4r	.	.	4r	.	4r	.	16ee\LL	.
.	.	.	.	.	.	.	16ff\	.
.	.	.	.	.	.	.	16gg\	.
.	.	.	.	.	.	.	16aa\JJ	-los
=80	=80	=80	=80	=80	=80	=80	=80	=80
*	*	*	*tremolo	*	*	*	*	*
8BB-/L	.	2ryy	8b-\L	.	8dd\L	.	8bb-\L	tu-
8C/	.	.	8b-\	.	8dd\	.	8dd\J	.
8D/	.	.	8b-\	.	8dd\	.	4dd\	-os
8BB-/J	.	.	8b-\J	.	8dd\J	.	.	.
*	*	*	*Xtremolo	*	*	*	*	*
=81	=81	=81	=81	=81	=81	=81	=81	=81
4F\	.	2ryy	4a/	.	4cc\	.	16cc\LL	mi-
.	.	.	.	.	.	.	16a\	.
.	.	.	.	.	.	.	16b-\	.
.	.	.	.	.	.	.	16cc\JJ	.
4r	.	.	4r	.	4r	.	16dd\LL	-se-
.	.	.	.	.	.	.	16ee\JJ	.
.	.	.	.	.	.	.	16ff\LL	-ri-
.	.	.	.	.	.	.	16gg\JJ	.
=82	=82	=82	=82	=82	=82	=82	=82	=82
*	*	*	*tremolo	*	*	*	*	*
8F\L	.	2ryy	8a/L	.	8cc\L	.	8aa\L	-cor-
8G\	.	.	8a/	.	8cc\	.	8cc\J	-des
8A\	.	.	8a/	.	8cc\	.	4cc\	.
8F\J	.	.	8a/J	.	8cc\J	.	.	.
*	*	*	*Xtremolo	*	*	*	*	*
=83	=83	=83	=83	=83	=83	=83	=83	=83
4C/	.	2ryy	4g/	.	4b-\	.	16b-\LL	o-
.	.	.	.	.	.	.	16g\	.
.	.	.	.	.	.	.	16a\	.
.	.	.	.	.	.	.	16b-\JJ	.
4r	.	.	4r	.	4r	.	16cc\LL	.
.	.	.	.	.	.	.	16dd\	.
.	.	.	.	.	.	.	16ee\	.
.	.	.	.	.	.	.	16ff\JJ	.
!	!	!	!LO:LB:g=original	!	!	!	!	!
=84	=84	=84	=84	=84	=84	=84	=84	=84
*	*	*	*tremolo	*	*	*	*	*
8C\L	.	2ryy	8g/L	.	8b-\L	.	8gg\	.
8D\	.	.	8g/	.	8b-\	.	8b-\	-cu-
8E\	.	.	8g/	.	8b-\	.	4b-\	-los
8C\J	.	.	8g/J	.	8b-\J	.	.	.
*	*	*	*Xtremolo	*	*	*	*	*
=85	=85	=85	=85	=85	=85	=85	=85	=85
4F\	.	2ryy	4f/	.	4a\	.	16a\LL	ad
.	.	.	.	.	.	.	16f\	.
.	.	.	.	.	.	.	16g\	.
.	.	.	.	.	.	.	16a\JJ	.
!	!	!	!	!	!	!	!LO:LB:g=original	!
4r	.	.	4r	.	4r	.	16b-\LL	.
.	.	.	.	.	.	.	16cc\	.
.	.	.	.	.	.	.	16dd\	.
.	.	.	.	.	.	.	16ee\JJ	.
=86	=86	=86	=86	=86	=86	=86	=86	=86
*	*	*	*tremolo	*	*	*	*	*
8F\L	.	2ryy	8f/L	.	8a\L	.	4ff\	nos
8G\	.	.	8f/	.	8a\	.	.	.
8A\	.	.	8f/	.	8a\	.	4a\	con-
8F\J	.	.	8f/J	.	8a\J	.	.	.
*	*	*	*Xtremolo	*	*	*	*	*
=87	=87	=87	=87	=87	=87	=87	=87	=87
!LO:TX:a:t=P:problem:mixed beam	!	!	!	!	!	!	!	!
8c\L	.	2ryy	8f/L	.	8a/L	.	8a\	-ver-
8C/	.	.	8e/J	.	8g/J	.	8g\	-te
8E/	.	.	4r	.	4r	.	8r	.
8C/J	.	.	.	.	.	.	8cc\	il-
=88	=88	=88	=88	=88	=88	=88	=88	=88
*tremolo	*	*	*	*	*	*	*	*
!	!	!	!LO:TX:a:t=P:problem:takty 88-89 repetycja	!	!LO:SIC:s=8b	!	!	!
8G\L	.	2ryy	8g/	.	8b-\	.	(>8bn\L	.
8G\	.	.	8r	.	8r	.	8dd\J)	.
8G\	.	.	8a/	.	8cc\	.	8cc\L	-los
8G\J	.	.	8r	.	8r	.	8ee\J	.
!	!	!	!	!	!LO:LB:g=original	!	!	!
=89	=89	=89	=89	=89	=89	=89	=89	=89
8G\L	.	2ryy	8bn\	.	8dd\	.	8dd\L	tu-
8G\	.	.	8r	.	8r	.	8ff\J	.
8G\	.	.	8cc\	.	8ee\	.	8ee\L	-os
8G\J	.	.	8r	.	8r	.	8gg\J	mi-
=90	=90	=90	=90	=90	=90	=90	=90	=90
!	!	!	!	!	!LO:SIC:s=8b	!	!	!
8G\L	.	2ryy	8g/	.	8b-\	.	8bn\L	-ſe-
8G\	.	.	8r	.	8r	.	8dd\J	.
8G\	.	.	8a/	.	8cc\	.	8cc\L	-ri-
8G\J	.	.	8r	.	8r	.	8ee\J	.
=91	=91	=91	=91	=91	=91	=91	=91	=91
8G\L	.	2ryy	8bn\	.	8dd\	.	8dd\L	-cor-
8G\	.	.	8r	.	8r	.	8ff\J	.
8G\	.	.	8cc\	.	8ee\	.	8ee\L	-dis
8G\J	.	.	8r	.	8r	.	8gg\J	.
*Xtremolo	*	*	*	*	*	*	*	*
=92	=92	=92	=92	=92	=92	=92	=92	=92
8r	.	2ryy	4cc\	.	4ff#X\	.	4ff#X\	o-
8C\L	.	.	.	.	.	.	.	.
8D\	.	.	4cc\	.	4ff#\	.	4ff#\	-cu-
8C\J	.	.	.	.	.	.	.	.
=93	=93	=93	=93	=93	=93	=93	=93	=93
8BBn\L	.	2ryy	8bn\	.	8gg\	.	8gg\	-los
8GG\	.	.	4dd\	.	4ffn\	.	4ffn\	ad
8AA\	.	.	.	.	.	.	.	.
8BB\J	.	.	16cc\LL	.	16ee\LL	.	16ee\LL	.
.	.	.	16b\JJ	.	16dd\JJ	.	16dd\JJ	.
!LO:LB:g=original	!	!	!	!	!	!	!LO:LB:g=original	!
=94	=94	=94	=94	=94	=94	=94	=94	=94
8C\L	.	2ryy	8cc\L	.	8ee\	.	8ee\	nos
8C\	.	.	8a\	.	4.ff#X\	.	4.ff#X\	con-
8D\	.	.	8a\	.	.	.	.	.
8C\J	.	.	8a\J	.	.	.	.	.
=95	=95	=95	=95	=95	=95	=95	=95	=95
8BBn/L	.	2ryy	8bn\	.	8gg\	.	8gg\	-ver-
8GG/	.	.	4dd\	.	4ffn\	.	4ffn\	.
8AA/	.	.	.	.	.	.	.	.
8BB/J	.	.	(>16cc\LL	.	(>16ee\LL	.	16ee\LL	.
.	.	.	16b\JJ)	.	16dd\JJ)	.	16dd\JJ	.
=96	=96	=96	=96	=96	=96	=96	=96	=96
8C\L	.	2ryy	8cc\L	.	8ee\L	.	8ee\L	.
8F\	.	.	8cc\	.	8aa\J	.	8aa\J	.
8E\	.	.	8cc\	.	16gg\LL	.	16gg\LL	.
.	.	.	.	.	16ff\	.	16ff\	.
8F\J	.	.	8dd\J	.	16ee\	.	16ee\	.
.	.	.	.	.	16dd\JJ	.	16dd\JJ	.
=97	=97	=97	=97	=97	=97	=97	=97	=97
4G\	.	2ryy	4cc\	.	4cc\	.	4cc\	.
!	!	!	!LO:SIC:s=4b	!	!	!	!	!
4GG/	.	.	4b-\	.	4ddT>\	.	4dd\	.
=98	=98	=98	=98	=98	=98	=98	=98	=98
!	!LO:HP:a:i:t=for	!	!	!LO:HP:a:i:t=for	!	!	!	!
!	!LO:DY:a	!	!	!LO:DY:a	!	!	!	!
8C\L	f	2ryy	4cc\	f	4cc\	.	4cc\	-te
8D\	.	.	.	.	.	.	.	.
8E\	.	.	4cc\	.	4cc\	.	4r	.
8D\J	.	.	.	.	.	.	.	.
!	!	!	!LO:LB:g=original	!	!	!	!	!
=99	=99	=99	=99	=99	=99	=99	=99	=99
!	!	!	!	!	!LO:TX:a:t=P:problem:mixed beam	!	!	!
!	!	!	!LO:TX:a:t=P:problem:mixed beam	!	!LO:TX:a:t=P:problem:takt 99 repetycja	!	!	!
!	!	!	!	!	!	!	!LO:N:vis=00	!
4C\	.	2ryy	16cc\LL	.	16cc\LL	.	0r	.
.	.	.	16c/	.	16c/	.	.	.
.	.	.	16d/	.	16d/	.	.	.
.	.	.	16e/JJ	.	16e/JJ	.	.	.
4r	.	.	16f/LL	.	16f/LL	.	.	.
.	.	.	16g/	.	16g/	.	.	.
.	.	.	16a/	.	16a/	.	.	.
!	!	!	!	!	!LO:SIC:s=16b	!	!	!
.	.	.	16bn/JJ	.	16b-/JJ	.	.	.
=100	=100	=100	=100	=100	=100	=100	=100	=100
!	!	!	!LO:TX:a:t=P:problem:mixed beam	!	!LO:TX:a:t=P:problem:mixed beam	!	!	!
4C\	.	2ryy	16cc\LL	.	16cc\LL	.	.	.
.	.	.	16c/	.	16c/	.	.	.
.	.	.	16d/	.	16d/	.	.	.
.	.	.	16e/JJ	.	16e/JJ	.	.	.
4r	.	.	16f/LL	.	16f/LL	.	.	.
.	.	.	16g/	.	16g/	.	.	.
.	.	.	16a/	.	16a/	.	.	.
!	!	!	!	!	!LO:SIC:s=16b	!	!	!
.	.	.	16bn/JJ	.	16b-/JJ	.	.	.
=101	=101	=101	=101	=101	=101	=101	=101	=101
*tremolo	*	*	*	*	*	*	*	*
!	!	!	!LO:TX:a:t=P:problem:mixed beam	!	!	!	!	!
8C\L	.	2ryy	8cc\L	.	8cc\L	.	.	.
8C\	.	.	8e/J	.	8g\J	.	.	.
8C\	.	.	4f/	.	4a\	.	.	.
8C\J	.	.	.	.	.	.	.	.
=102	=102	=102	=102	=102	=102	=102	=102	=102
8C\L	.	2ryy	8e/L	.	8g\L	.	.	.
8C\	.	.	8c/J	.	8e\J	.	.	.
8C\	.	.	4d/	.	4a\	.	.	.
8C\J	.	.	.	.	.	.	.	.
*Xtremolo	*	*	*	*	*	*	*	*
=103	=103	=103	=103	=103	=103	=103	=103	=103
!	!	!	!	!	!	!	!LO:N:vis=00	!
8C/L	.	2ryy	8c/L	.	8e/L	.	0r	.
8C/	.	.	8e/J	.	8c/J	.	.	.
8GG/	.	.	4f/	.	4d/	.	.	.
8GG/J	.	.	.	.	.	.	.	.
!	!	!	!	!	!LO:LB:g=original	!	!	!
=104	=104	=104	=104	=104	=104	=104	=104	=104
8C\L	.	2ryy	4e/	.	4c/	.	.	.
8D\	.	.	.	.	.	.	.	.
8E\	.	.	8r	.	8r	.	.	.
8C\J	.	.	8g/	.	8g/	.	.	.
=105	=105	=105	=105	=105	=105	=105	=105	=105
4F\	.	2ryy	16a/LL	.	16a\LL	.	.	.
.	.	.	16f/	.	16f\	.	.	.
.	.	.	16g/	.	16g\	.	.	.
.	.	.	16a/JJ	.	16a\JJ	.	.	.
4r	.	.	16bn\LL	.	16bn\LL	.	.	.
.	.	.	16cc\	.	16cc\	.	.	.
.	.	.	16dd\	.	16dd\	.	.	.
.	.	.	16ee\JJ	.	16ee\JJ	.	.	.
=106	=106	=106	=106	=106	=106	=106	=106	=106
!	!	!	!LO:TX:a:t=P:problem:mixed beam	!	!	!	!	!
8F\L	.	2ryy	8ff\L	.	8ff\L	.	.	.
8G\	.	.	8a/J	.	8a\J	.	.	.
8A\	.	.	4a/	.	4a\	.	.	.
8F\J	.	.	.	.	.	.	.	.
=107	=107	=107	=107	=107	=107	=107	=107	=107
!	!	!	!	!	!	!	!LO:N:vis=00	!
4C/	.	2ryy	16g/LL	.	16g\LL	.	0rcc	.
.	.	.	16e/	.	16e\JJ	.	.	.
.	.	.	16f/	.	16f/LL	.	.	.
.	.	.	16g/JJ	.	16g/JJ	.	.	.
4r	.	.	16a\LL	.	16a\LL	.	.	.
.	.	.	16bn\	.	16bn\	.	.	.
.	.	.	16cc\	.	16cc\	.	.	.
.	.	.	16dd\JJ	.	16dd\JJ	.	.	.
=108	=108	=108	=108	=108	=108	=108	=108	=108
8C\L	.	2ryy	8ee\L	.	8ee\L	.	.	.
8D\	.	.	8g\J	.	8g\J	.	.	.
8E\	.	.	4g/	.	4g\	.	.	.
8C\J	.	.	.	.	.	.	.	.
!	!	!	!LO:LB:g=original	!	!	!	!	!
=109	=109	=109	=109	=109	=109	=109	=109	=109
4GG/	.	2ryy	16f/LL	.	16f/LL	.	.	.
.	.	.	16d/	.	16d/	.	.	.
.	.	.	16e/	.	16e/	.	.	.
.	.	.	16f/JJ	.	16f/JJ	.	.	.
4r	.	.	16g/LL	.	16g\LL	.	.	.
.	.	.	16a/	.	16a\	.	.	.
.	.	.	16bn/	.	16bn\	.	.	.
.	.	.	16cc/JJ	.	16cc\JJ	.	.	.
!LO:LB:g=original	!	!	!	!	!	!	!	!
=110	=110	=110	=110	=110	=110	=110	=110	=110
!	!	!	!LO:TX:a:t=P:problem:mixed beam	!	!LO:TX:a:t=P:problem:mixed beam	!	!	!
8GG/L	.	2ryy	8dd\L	.	8dd\L	.	.	.
8AA/	.	.	8f/J	.	8f/J	.	.	.
8BB-/	.	.	4f/	.	4f/	.	.	.
8GG/J	.	.	.	.	.	.	.	.
=111	=111	=111	=111	=111	=111	=111	=111	=111
!	!	!	!	!	!	!	!LO:N:vis=00	!
4C\	.	2ryy	16e/LL	.	16e/LL	.	0rcc	.
.	.	.	16c/	.	16c/	.	.	.
.	.	.	16d/	.	16d/	.	.	.
.	.	.	16e/JJ	.	16e/JJ	.	.	.
4r	.	.	16f/LL	.	16f/LL	.	.	.
.	.	.	16g/	.	16g/	.	.	.
.	.	.	16a/	.	16a/	.	.	.
.	.	.	16bn/JJ	.	16bn/JJ	.	.	.
=112	=112	=112	=112	=112	=112	=112	=112	=112
8C\L	.	2ryy	4cc\	.	4cc\	.	.	.
8D\	.	.	.	.	.	.	.	.
8E\	.	.	4e/	.	4e/	.	.	.
8C\J	.	.	.	.	.	.	.	.
=113	=113	=113	=113	=113	=113	=113	=113	=113
!LO:TX:a:t=P:problem:mixed beam	!	!	!	!	!	!	!	!
8G\L	.	2ryy	8e/L	.	8e/L	.	.	.
8GG/	.	.	8d/J	.	8d/J	.	.	.
8BBn/	.	.	8r	.	8r	.	.	.
8GG/J	.	.	8d/	.	8d/	.	.	.
=114	=114	=114	=114	=114	=114	=114	=114	=114
*tremolo	*	*	*	*	*	*	*	*
!LO:SIC:s=lub 8C	!	!	!LO:TX:a:t=P:problem:mixed beam	!	!LO:TX:a:t=P:problem:mixed beam	!	!	!
8D\L	.	2ryy	8e/L	.	8e/L	.	.	.
8D\	.	.	16ee\L	.	16ee\L	.	.	.
!	!	!	!LO:SIC:s=lub 16cc	!	!	!	!	!
.	.	.	16dd\JJ	.	16cc\JJ	.	.	.
!	!	!	!	!	!LO:TX:a:t=P:problem:niewyraźny zapis	!	!	!
8D\	.	.	8g/L	.	8g\L	.	.	.
8D\J	.	.	16cc/L	.	16cc\L	.	.	.
.	.	.	16g/JJ	.	16g\JJ	.	.	.
!	!	!	!	!	!LO:PB:g=original	!	!	!
=115	=115	=115	=115	=115	=115	=115	=115	=115
!	!	!	!	!	!	!	!LO:N:vis=00	!
8C\L	.	2ryy	8e/L	.	8e/L	.	0r	.
8C\	.	.	16g/L	.	16g/L	.	.	.
.	.	.	16e/JJ	.	16e/JJ	.	.	.
!	!	!	!	!	!LO:SIC:s=8c	!	!	!
8C\	.	.	8c/L	.	8d/L	.	.	.
8C\J	.	.	16e/L	.	16e/L	.	.	.
.	.	.	16c/JJ	.	16c/JJ	.	.	.
*Xtremolo	*	*	*	*	*	*	*	*
=116	=116	=116	=116	=116	=116	=116	=116	=116
4G\	.	2ryy	4G/	.	4G/	.	.	.
4GG/	.	.	4dd\	.	4dd\	.	.	.
=117	=117	=117	=117	=117	=117	=117	=117	=117
8C/L	.	2ryy	8cc\L	.	8cc\L	.	.	.
8C/	.	.	8cc\J	.	8cc\	.	.	.
8C/	.	.	8g/L	.	8g\	.	.	.
8C/J	.	.	8e/J	.	8e\J	.	.	.
=118	=118	=118	=118	=118	=118	=118	=118	=118
!	!	!	!LO:TX:i:b:t=Verte	!	!	!	!	!
4C/	.	2ryy	4c/	.	4c/	.	.	.
4r	.	.	4r	.	4r	.	.	.
=119	=119	=119	=119	=119	=119	=119	=119	=119
!	!LO:HP:a:i:t=p:	!	!	!	!	!	!	!
!	!LO:DY:a	!	!	!	!	!	!	!
8C\L	p	2ryy	4e/	.	4cc\	.	4cc\	E-
8D\	.	.	.	.	.	.	.	.
8E\	.	.	4e/	.	4cc\	.	4cc\	-ia
8C\J	.	.	.	.	.	.	.	.
=120	=120	=120	=120	=120	=120	=120	=120	=120
!	!	!	!	!	!LO:TX:a:t=P:problem:mixed beam	!	!	!
!	!	!	!	!	!LO:TX:a:t=P:problem:takt 120 repetycja	!	!	!
4C\	.	2ryy	4e/	.	16cc\LL	.	2cc\	er-
.	.	.	.	.	16c/	.	.	.
.	.	.	.	.	16d/	.	.	.
.	.	.	.	.	16e/JJ	.	.	.
4r	.	.	4r	.	16f/LL	.	.	.
.	.	.	.	.	16g/	.	.	.
.	.	.	.	.	16a/	.	.	.
.	.	.	.	.	16bn/JJ	.	.	.
!	!	!	!LO:PB:g=original	!	!	!	!	!
=121	=121	=121	=121	=121	=121	=121	=121	=121
!	!	!	!	!	!LO:TX:a:t=P:problem:mixed beam	!	!	!
4C\	.	2ryy	4e/	.	16cc\LL	.	2cc\	.
.	.	.	.	.	16c/	.	.	.
.	.	.	.	.	16d/	.	.	.
.	.	.	.	.	16e/JJ	.	.	.
4r	.	.	4r	.	16f/LL	.	.	.
.	.	.	.	.	16g/	.	.	.
.	.	.	.	.	16a/	.	.	.
.	.	.	.	.	16bn/JJ	.	.	.
=122	=122	=122	=122	=122	=122	=122	=122	=122
8C\L	.	2ryy	8e/L	.	8cc\L	.	8cc\L	.
8C\	.	.	8e/J	.	8g\J	.	8g\J	.
8C\	.	.	4f/	.	4a\	.	4a\	-go
8C\J	.	.	.	.	.	.	.	.
=123	=123	=123	=123	=123	=123	=123	=123	=123
8C\L	.	2ryy	8e/L	.	8g\L	.	8g/L	ad-
8C\	.	.	8c/J	.	8e\J	.	8e/J	.
8C\	.	.	4d/	.	4f/	.	4f/	-vo-
8C\J	.	.	.	.	.	.	.	.
!	!	!	!	!	!	!	!LO:LB:g=original	!
=124	=124	=124	=124	=124	=124	=124	=124	=124
!	!	!	!	!	!LO:TX:a:t=P:problem:mixed beam	!	!	!
8C\L	.	2ryy	8c/L	.	8e/L	.	8e/	-ca-
8C\	.	.	8e/J	.	8cc\J	.	8cc\	-ta
8G\	.	.	4g/	.	4dd\	.	4dd\	nos-
8G\J	.	.	.	.	.	.	.	.
=125	=125	=125	=125	=125	=125	=125	=125	=125
!	!	!	!LO:TX:a:t=P:problem:mixed beam	!	!	!	!	!
8C\L	.	2ryy	8e/L	.	8cc\L	.	4cc\	-tra
8C\	.	.	8ee\	.	8gg\	.	.	.
8C\	.	.	8ee\	.	8gg\	.	8r	.
8C\J	.	.	8ee\J	.	8gg\J	.	8cc\	il-
=126	=126	=126	=126	=126	=126	=126	=126	=126
*	*	*	*tremolo	*	*	*	*	*
8C\L	.	2ryy	8ee\L	.	8gg\L	.	8cc\	.
8C\J	.	.	8ee\	.	8gg\	.	4ee\	.
!LO:LB:g=original	!	!	!	!	!	!	!	!
8C\L	.	.	8ee\	.	8gg\	.	.	.
8C\J	.	.	8ee\J	.	8gg\J	.	8gg\	-los
=127	=127	=127	=127	=127	=127	=127	=127	=127
8C\L	.	2ryy	8ee\L	.	8gg\L	.	16bb-\LL	tu-
.	.	.	.	.	.	.	16gg\JJ	.
8C\	.	.	8ee\	.	8gg\	.	4ee\	-os
8C\	.	.	8ee\	.	8gg\	.	.	.
8C\J	.	.	8ee\J	.	8gg\J	.	8ee\	mi-
=128	=128	=128	=128	=128	=128	=128	=128	=128
*	*	*	*	*	*tremolo	*	*	*
8C\L	.	2ryy	8ee\L	.	8gg\L	.	16gg\LL	-ſe-
.	.	.	.	.	.	.	16ee\JJ	.
8C\	.	.	8ee\	.	8gg\	.	4cc\	.
8C\	.	.	8ee\	.	8gg\	.	.	.
8C\J	.	.	8ee\J	.	8gg\J	.	8cc\	-ri-
=129	=129	=129	=129	=129	=129	=129	=129	=129
8C\L	.	2ryy	8b-X\L	.	8gg\L	.	16gg\LL	-cor-
.	.	.	.	.	.	.	16ee\JJ	.
8C\	.	.	8b-\	.	8gg\	.	4cc\	.
8C\	.	.	8b-\	.	8gg\	.	.	.
8C\J	.	.	8b-\J	.	8gg\J	.	8b-\	-des
!	!	!	!	!	!LO:LB:g=original	!	!	!
=130	=130	=130	=130	=130	=130	=130	=130	=130
*tremolo	*	*	*	*	*	*	*	*
8F\L	.	2ryy	8a/L	.	8ff\L	.	16a\	o-
.	.	.	.	.	.	.	16g\	-cu-
8F\	.	.	8a/	.	8ff\	.	8f/	-los
8F\	.	.	8a/	.	8ff\	.	8r	.
8F\J	.	.	8a/J	.	8ff\J	.	8ff\	ad
*	*	*	*Xtremolo	*	*Xtremolo	*	*	*
=131	=131	=131	=131	=131	=131	=131	=131	=131
8F\L	.	2ryy	8a/L	.	8ff\L	.	4ff\	nos
8F\	.	.	8a/J	.	8ff\	.	.	.
!	!	!	!	!	!LO:SIC:s=8e-	!	!	!
8F\	.	.	8cc\L	.	8ee\	.	4ee-X\	con-
!	!	!	!	!	!LO:SIC:s=8e-	!	!	!
8F\J	.	.	8cc\J	.	8ee\J	.	.	.
!	!	!	!	!	!	!	!LO:LB:g=original	!
=132	=132	=132	=132	=132	=132	=132	=132	=132
8BB-/L	.	2ryy	16b-\LL	.	16dd\LL	.	16dd\LL	-ver-
.	.	.	16cc\JJ	.	16een\JJ	.	16ee\JJ	.
8BB-/	.	.	4dd\	.	4ff\	.	4ff\	-te
8BB-/	.	.	.	.	.	.	.	.
8BB-/J	.	.	8dd\	.	8ff\	.	8ff\	ad
!	!	!	!LO:LB:g=original	!	!	!	!	!
=133	=133	=133	=133	=133	=133	=133	=133	=133
8F\L	.	2ryy	8cc\	.	8ee\	.	(>8ee\	nos
8F\	.	.	4b-\	.	4dd\	.	4dd\)	.
8F\	.	.	.	.	.	.	.	.
8F\J	.	.	8a/	.	8cc\	.	8cc\	con-
*Xtremolo	*	*	*	*	*	*	*	*
=134	=134	=134	=134	=134	=134	=134	=134	=134
!LO:TX:a:t=P:problem:mixed beam	!	!	!	!	!	!	!	!
8BB-/L	.	2ryy	16b-\LL	.	(>16dd\LL	.	16dd\LL	-ver-
.	.	.	16a\J	.	16cc\J)	.	16cc\JJ	.
8BB-/	.	.	8b-\J	.	8dd\J	.	4b-\	-te
8BB-/	.	.	8b-\L	.	8dd\L	.	.	.
8G\J	.	.	8bn\J	.	8gg\J	.	8gg\	ad
=135	=135	=135	=135	=135	=135	=135	=135	=135
8G\L	.	2ryy	8b-\L	.	8gg\L	.	4gg\	nos
8G\	.	.	8b-\J	.	8gg\	.	.	.
8G\	.	.	8dd\L	.	8ff\	.	4ff\	con-
8G\J	.	.	8dd\J	.	8ff\J	.	.	.
=136	=136	=136	=136	=136	=136	=136	=136	=136
8C/L	.	2ryy	(>16cc\LL	.	(>8een\L	.	16een\LL	-ver-
.	.	.	16dd\JJ)	.	.	.	16ff\JJ	.
8C/	.	.	4ee\	.	8ff\J)	.	4gg\	-te
8C/	.	.	.	.	8gg\L	.	.	.
8C/J	.	.	8ee\	.	8gg\J	.	8gg\	ad
=137	=137	=137	=137	=137	=137	=137	=137	=137
8G\L	.	2ryy	8dd\	.	8ff\	.	8ff\	nos
8G\	.	.	4cc\	.	4ee\	.	4ee\	.
8G\	.	.	.	.	.	.	.	.
8G\J	.	.	8bn\	.	8dd\	.	8dd\	con-
=138	=138	=138	=138	=138	=138	=138	=138	=138
8C/L	.	2ryy	16cc\LL	.	(>16ee\LL	.	16ee\LL	-ver-
.	.	.	16bn\J	.	16dd\J)	.	16dd\J	.
8C/	.	.	8cc\J	.	8ee\J	.	8cc\J	-te
8C/	.	.	8cc\L	.	8ee\L	.	4r	.
8C/J	.	.	8cc\J	.	8ee\J	.	.	.
=139	=139	=139	=139	=139	=139	=139	=139	=139
8r	.	2ryy	8r	.	8r	.	2cc\	ad
8C/L	.	.	8g/L	.	8ee\L	.	.	.
8C/	.	.	8g/	.	8ee\	.	.	.
8C/J	.	.	8g/J	.	8ee\J	.	.	.
=140	=140	=140	=140	=140	=140	=140	=140	=140
*tremolo	*	*	*tremolo	*	*	*	*	*
8C/L	.	2ryy	8g/L	.	8ee\L	.	2ee\	nos
8C/	.	.	8g/	.	8ee\	.	.	.
8C/	.	.	8g/	.	8ee\	.	.	.
8C/J	.	.	8g/J	.	8ee\J	.	.	.
!	!	!	!	!	!	!	!LO:LB:g=original	!
=141	=141	=141	=141	=141	=141	=141	=141	=141
8C/L	.	2ryy	8g/L	.	8ee\L	.	16gg\LL	con-
.	.	.	.	.	.	.	16ff\	.
8C/	.	.	8g/	.	8ee\	.	16ee\	.
.	.	.	.	.	.	.	16dd\JJ	.
8C/	.	.	8g/	.	8ee\	.	8cc\L	.
8C/J	.	.	8g/J	.	8b-\J	.	8b-\J	.
*Xtremolo	*	*	*Xtremolo	*	*	*	*	*
=142	=142	=142	=142	=142	=142	=142	=142	=142
8F\L	.	2ryy	8f/L	.	8a/L	.	8a\	-ver-
8C\	.	.	8e/J	.	8g/J	.	8g\	-te
.	.	.	.	.	8qqf/	.	.	.
8F\	.	.	8r	.	4g/	.	8r	.
8C\J	.	.	8g/	.	.	.	8g\	con-
!LO:LB:g=original	!	!	!LO:LB:g=original	!	!	!	!	!
=143	=143	=143	=143	=143	=143	=143	=143	=143
*	*	*	*tremolo	*	*	*	*	*
!	!	!	!	!	!	!	!LO:TX:a:t=P:problem:takty 143-145 repetycja	!
!	!	!	!	!	!	!	!LO:TX:a:t=P:problem:zapis prawdopodobny - wyblakła pięciolinia	!
8F\L	.	2ryy	8a/L	.	12a/L	.	12a\L	-ver-
.	.	.	.	.	12g/	.	12g\	.
8F\	.	.	8a/	.	.	.	.	.
.	.	.	.	.	12f/J	.	12f\J	.
!	!	!	!	!	!LO:LB:g=original	!	!	!
!	!	!	!	!	!	!	!LO:SIC:s=8f	!
8F\	.	.	8a/	.	8f/L	.	8e/L	.
!	!	!	!	!	!	!	!LO:SIC:s=8f	!
8F\J	.	.	8a/J	.	8f/J	.	8e/J	.
=144	=144	=144	=144	=144	=144	=144	=144	=144
*tremolo	*	*	*	*	*	*	*	*
8D\L	.	2ryy	8f/L	.	12a/L	.	12a\L	.
.	.	.	.	.	12g/	.	12g\	.
8D\	.	.	8f/	.	.	.	.	.
.	.	.	.	.	12f/J	.	12f\J	.
!	!	!	!	!	!	!	!LO:SIC:s=8f	!
8D\	.	.	8f/	.	8f/L	.	8e/L	.
!	!	!	!	!	!	!	!LO:SIC:s=8f	!
8D\J	.	.	8f/J	.	8f/J	.	8e/J	.
*Xtremolo	*	*	*Xtremolo	*	*	*	*	*
=145	=145	=145	=145	=145	=145	=145	=145	=145
*	*	*	*	*	*tremolo	*	*	*
8BB-/L	.	2ryy	8d/L	.	8b-\L	.	16ee\LL	.
.	.	.	.	.	.	.	16ff\	.
8BB-/	.	.	8d/J	.	8b-\	.	16gg\	.
.	.	.	.	.	.	.	16ff\JJ	.
8C/	.	.	8e/L	.	8b-\	.	16ee\LL	.
.	.	.	.	.	.	.	16dd\	.
8C/J	.	.	8e/J	.	8b-\J	.	16cc\	.
.	.	.	.	.	.	.	16b-\JJ	.
*	*	*	*	*	*Xtremolo	*	*	*
=146	=146	=146	=146	=146	=146	=146	=146	=146
*tremolo	*	*	*tremolo	*	*	*	*	*
!	!	!	!	!	!	!	!LO:TX:a:t=P:problem:zapis prawdopodobny - wyblakła pięciolinia	!
8F\L	.	2ryy	8a/L	.	12a/L	.	12a\L	.
.	.	.	.	.	12g/	.	12g\	.
8F\	.	.	8a/	.	.	.	.	.
.	.	.	.	.	12f/J	.	12f\J	.
!	!	!	!	!	!	!	!LO:SIC:s=8f	!
8F\	.	.	8a/	.	8f/L	.	8e/L	.
!	!	!	!	!	!	!	!LO:SIC:s=8f	!
8F\J	.	.	8a/J	.	8f/J	.	8e/J	.
=147	=147	=147	=147	=147	=147	=147	=147	=147
8D\L	.	2ryy	8f/L	.	12a/L	.	12a\L	.
.	.	.	.	.	12g/	.	12g\	.
8D\	.	.	8f/	.	.	.	.	.
.	.	.	.	.	12f/J	.	12f\J	.
!	!	!	!	!	!	!	!LO:SIC:s=8f	!
8D\	.	.	8f/	.	8f/L	.	8e/L	.
!	!	!	!	!	!	!	!LO:SIC:s=8f	!
8D\J	.	.	8f/J	.	8f/J	.	8e/J	.
*Xtremolo	*	*	*Xtremolo	*	*	*	*	*
=148	=148	=148	=148	=148	=148	=148	=148	=148
*	*	*	*	*	*tremolo	*	*	*
8BB-/L	.	2ryy	8d/L	.	8b-\L	.	16ee\LL	.
.	.	.	.	.	.	.	16ff\	.
8BB-/	.	.	8d/J	.	8b-\	.	16gg\	.
.	.	.	.	.	.	.	16ff\JJ	.
8C/	.	.	8e/L	.	8b-\	.	16ee\LL	.
.	.	.	.	.	.	.	16dd\	.
8C/J	.	.	8e/J	.	8b-\J	.	16cc\	.
.	.	.	.	.	.	.	16b-\JJ	.
*	*	*	*	*	*Xtremolo	*	*	*
=149	=149	=149	=149	=149	=149	=149	=149	=149
4F`>\	.	2ryy	4f/	.	4a/	.	8a\L	.
.	.	.	.	.	.	.	16aa\L	.
.	.	.	.	.	.	.	16ff\JJ	.
4F`>\	.	.	4f/	.	4a/	.	8cc\L	.
.	.	.	.	.	.	.	16ff\L	.
.	.	.	.	.	.	.	16cc\JJ	.
=150	=150	=150	=150	=150	=150	=150	=150	=150
4F`>\	.	2ryy	4f/	.	4a/	.	8a\L	.
.	.	.	.	.	.	.	16cc\L	.
.	.	.	.	.	.	.	16a\JJ	.
4F`>\	.	.	4f/	.	4a/	.	8f/L	.
.	.	.	.	.	.	.	16a/L	.
.	.	.	.	.	.	.	16f/JJ	.
=151	=151	=151	=151	=151	=151	=151	=151	=151
4C/	.	2ryy	4c/	.	4c/	.	4c/	.
!	!	!	!	!	!LO:TX:a:t=P:problem:w tym takcie następuje koniec partii skrzypiec I w tej podczęści	!	!	!
4C/	.	.	4r	.	4r	.	4g\	.
!	!	!	!LO:TX:a:t=P:problem:podwójna kreska	!	!	!	!	!
=152	=152	=152	=152||	=152	=152	=152	=152	=152
!LO:TX:a:t=P:problem:Da Capo na pięciolinii	!	!	!	!	!	!	!	!
!LO:TX:b:i:t=Verte et Jesum	!	!	!LO:TX:a:t=P:problem:Da Capo na pięciolinii	!	!	!	!	!
!LO:TX:i:a:t=Da Capo	!	!	!LO:TX:i:a:t=Da Capo	!	!	!	!	!
2ryy	.	2ryy	2ryy	.	2ryy	.	4f/	-te
!	!	!	!	!	!	!	!LO:TX:a:t=P:problem:26 pustych taktów w źródle	!
!	!	!	!	!	!	!	!LO:TX:a:t=P:problem:podwójna kreska taktowa z obustronną repetycją	!
.	.	.	.	.	.	.	4r	.
!LO:PB:g=original	!	!	!LO:LB:g=original	!LO:LB:g=original	!	!	!LO:PB:g=original	!
=153	=153	=153||	=153||	=153||	=153||	=153||	=153||;;>	=153||
*k[b-e-]	*	*k[b-e-]	*k[b-e-]	*	*k[b-e-]	*	*k[b-e-]	*
*M3/4	*	*M3/4	*M3/4	*	*M3/4	*	*M3/4	*
!LO:TX:a:i:t=Andante	!	!	!LO:TX:i:a:t=Et Jesum | Tacet	!	!LO:TX:i:a:t=Et iesum Tacet	!	!	!
!LO:TX:b:i:t=Et iesum	!	!	!LO:TX:a:t=P:problem:Et Jesum | Tacet na pięciolinii	!	!LO:TX:a:t=P:problem:Et iesum Tacet na pięciolinii	!	!	!
4r	.	4ryy	4ryy	.	4ryy	.	4ff\	Et
=154	=154	=154	=154	=154	=154	=154	=154	=154
8BB-/L	.	2.ryy	2.ryy	.	2.ryy	.	8ff\L	ie-
8C/	.	.	.	.	.	.	8dd\J	.
8D/	.	.	.	.	.	.	4b-\	-sum
8BB-/	.	.	.	.	.	.	.	.
8C/	.	.	.	.	.	.	4r	.
8D/J	.	.	.	.	.	.	.	.
=155	=155	=155	=155	=155	=155	=155	=155	=155
8E-\L	.	2.ryy	2.ryy	.	2.ryy	.	8gg\L	Je-
8F\	.	.	.	.	.	.	8ee-\J	.
8G\	.	.	.	.	.	.	4b-\	-sum
8E-\	.	.	.	.	.	.	.	.
8F\	.	.	.	.	.	.	4r	.
8G\J	.	.	.	.	.	.	.	.
=156	=156	=156	=156	=156	=156	=156	=156	=156
8F\L	.	2.ryy	2.ryy	.	2.ryy	.	8cc\	be-
8G\	.	.	.	.	.	.	8a\	-ne-
.	.	.	.	.	.	.	8qqf/	.
8A\	.	.	.	.	.	.	2e-/	-dic-
8F\	.	.	.	.	.	.	.	.
8G\	.	.	.	.	.	.	.	.
8A\J	.	.	.	.	.	.	.	.
=157	=157	=157	=157	=157	=157	=157	=157	=157
8B-\L	.	2.ryy	2.ryy	.	2.ryy	.	4d/	-tum
8F\	.	.	.	.	.	.	.	.
8D\	.	.	.	.	.	.	4r	.
8F\	.	.	.	.	.	.	.	.
8D\	.	.	.	.	.	.	4r	.
8BB-\J	.	.	.	.	.	.	.	.
=158	=158	=158	=158	=158	=158	=158	=158	=158
8B-\L	.	2.ryy	2.ryy	.	2.ryy	.	4.dd\	fruc-
8F\	.	.	.	.	.	.	.	.
8D\	.	.	.	.	.	.	.	.
8F\	.	.	.	.	.	.	8cc\	-tum
8D\	.	.	.	.	.	.	8dd\	ven-
8BB-\J	.	.	.	.	.	.	8ee-\	-tris
=159	=159	=159	=159	=159	=159	=159	=159	=159
.	.	.	.	.	.	.	8qqdd/	.
8F\L	.	2.ryy	2.ryy	.	2.ryy	.	8cc\L	tu-
8En\	.	.	.	.	.	.	8b-\J	.
8F\	.	.	.	.	.	.	4.cc\	-i
8G\	.	.	.	.	.	.	.	.
8A\	.	.	.	.	.	.	.	.
8F\J	.	.	.	.	.	.	8dd\	no-
!	!	!	!	!	!	!	!LO:LB:g=original	!
=160	=160	=160	=160	=160	=160	=160	=160	=160
8G\L	.	2.ryy	2.ryy	.	2.ryy	.	8b-\	-bis
8C\	.	.	.	.	.	.	8a\	post
8E-\	.	.	.	.	.	.	4.b-\	hoc
8G\	.	.	.	.	.	.	.	.
8E-\	.	.	.	.	.	.	.	.
8C\J	.	.	.	.	.	.	8cc\	ex-
=161	=161	=161	=161	=161	=161	=161	=161	=161
.	.	.	.	.	.	.	8qqb-/	.
!	!	!	!	!	!	!	!LO:SIC:s=-si-	!
8F\L	.	2.ryy	2.ryy	.	2.ryy	.	8a\	-i-
8E-\	.	.	.	.	.	.	8g/	-li-
8F\	.	.	.	.	.	.	4f/	-um
8G\	.	.	.	.	.	.	.	.
8A\	.	.	.	.	.	.	8r	.
8D\J	.	.	.	.	.	.	8b-\	o-
=162	=162	=162	=162	=162	=162	=162	=162	=162
.	.	.	.	.	.	.	8qqa-X/	.
!	!	!	!	!	!	!	!LO:SIC:s=-sten-	!
8E-\L	.	2.ryy	2.ryy	.	2.ryy	.	2g\	-ste-
8D\	.	.	.	.	.	.	.	.
8E-\	.	.	.	.	.	.	.	.
8F\	.	.	.	.	.	.	.	.
8G\	.	.	.	.	.	.	4cc\	.
8E-\J	.	.	.	.	.	.	.	.
=163	=163	=163	=163	=163	=163	=163	=163	=163
.	.	.	.	.	.	.	8qqb-/	.
8F\L	.	2.ryy	2.ryy	.	2.ryy	.	2a\	.
8E-\	.	.	.	.	.	.	.	.
8F\	.	.	.	.	.	.	.	.
8G\	.	.	.	.	.	.	.	.
8A\	.	.	.	.	.	.	4dd\	.
8F\J	.	.	.	.	.	.	.	.
!LO:LB:g=original	!	!	!	!	!	!	!	!
=164	=164	=164	=164	=164	=164	=164	=164	=164
.	.	.	.	.	.	.	8qqcc/	.
8G\L	.	2.ryy	2.ryy	.	2.ryy	.	2b-\	.
8F#X\	.	.	.	.	.	.	.	.
8G\	.	.	.	.	.	.	.	.
8A\	.	.	.	.	.	.	.	.
8B-\	.	.	.	.	.	.	4ee-\	.
8G\J	.	.	.	.	.	.	.	.
=165	=165	=165	=165	=165	=165	=165	=165	=165
.	.	.	.	.	.	.	8qqdd/	.
8A\L	.	2.ryy	2.ryy	.	2.ryy	.	2cc\	.
8G\	.	.	.	.	.	.	.	.
8A\	.	.	.	.	.	.	.	.
8B-\	.	.	.	.	.	.	.	.
8c\	.	.	.	.	.	.	4ee-\	.
8F\J	.	.	.	.	.	.	.	.
!	!	!	!	!	!	!	!LO:LB:g=original	!
=166	=166	=166	=166	=166	=166	=166	=166	=166
!LO:TX:a:t=P:problem:mixed beam	!	!	!	!	!	!	!	!
8B-\L	.	2.ryy	2.ryy	.	2.ryy	.	12dd\L	.
.	.	.	.	.	.	.	12cc\	.
8E-\	.	.	.	.	.	.	.	.
.	.	.	.	.	.	.	12b-\J	.
8F\	.	.	.	.	.	.	2cc\	.
8E-\	.	.	.	.	.	.	.	.
8F\	.	.	.	.	.	.	.	.
8FF/J	.	.	.	.	.	.	.	.
=167	=167	=167	=167	=167	=167	=167	=167	=167
!LO:TX:a:t=P:problem:mixed beam	!	!	!	!	!	!	!	!
8BB-/L	.	2.ryy	2.ryy	.	2.ryy	.	8b-\	-de
8BB-/	.	.	.	.	.	.	8dd\	os-
8E-\	.	.	.	.	.	.	8cc\L	-ten-
8G\	.	.	.	.	.	.	8b-\	.
8C\	.	.	.	.	.	.	8a\	.
8E-\J	.	.	.	.	.	.	8g\J	.
=168	=168	=168	=168	=168	=168	=168	=168	=168
8F\L	.	2.ryy	2.ryy	.	2.ryy	.	4f/	.
8G\	.	.	.	.	.	.	.	.
8A\	.	.	.	.	.	.	2ee-\	.
8c\	.	.	.	.	.	.	.	.
8A\	.	.	.	.	.	.	.	.
8F\J	.	.	.	.	.	.	.	.
=169	=169	=169	=169	=169	=169	=169	=169	=169
!LO:TX:a:t=P:problem:mixed beam	!	!	!	!	!	!	!	!
8B-\L	.	2.ryy	2.ryy	.	2.ryy	.	12dd\L	.
.	.	.	.	.	.	.	12cc\	.
8E-\	.	.	.	.	.	.	.	.
.	.	.	.	.	.	.	12b-\J	.
8F\	.	.	.	.	.	.	2cc\	.
8E-\	.	.	.	.	.	.	.	.
8F\	.	.	.	.	.	.	.	.
8FF/J	.	.	.	.	.	.	.	.
=170	=170	=170	=170	=170	=170	=170	=170	=170
!	!LO:HP:a:i:t=for	!	!	!	!	!	!	!
!LO:TX:a:t=P:problem:mixed beam	!LO:DY:a	!	!	!	!	!	!	!
8BB-\L	f	2.ryy	2.ryy	.	2.ryy	.	4b-\	-de
8C\	.	.	.	.	.	.	.	.
8D\	.	.	.	.	.	.	4r	.
8E-\	.	.	.	.	.	.	.	.
8F\	.	.	.	.	.	.	4r	.
8FF/J	.	.	.	.	.	.	.	.
=171	=171	=171	=171	=171	=171	=171	=171	=171
!	!	!	!	!	!	!	!LO:TX:a:t=P:problem:podwójna kreska taktowa z obustronną repetycją	!
2BB-/	.	2.ryy	2.ryy	.	2.ryy	.	2.r	.
!LO:TX:a:t=P:problem:podwójna kreska taktowa z obustronną repetycją	!	!	!	!	!	!	!	!
4r	.	.	.	.	.	.	.	.
!LO:LB:g=original	!	!	!	!	!	!	!LO:LB:g=original	!
=172||;>	=172||	=172||	=172||	=172||	=172||	=172||	=172||;>	=172||
*k[b-]	*	*k[b-]	*k[b-]	*	*k[b-]	*	*k[b-]	*
*M3/4	*	*M3/4	*M3/4	*	*M3/4	*	*M3/4	*
!LO:TX:i:a:t=All(egr)o&colon; n(on)&colon; molto	!	!	!LO:TX:i:a:t=All(egr)o&colon; no(n)&colon; molto	!	!LO:TX:i:b:t=O clemens	!	!	!
!LO:TX:i:b:t=O clemens	!	!	!LO:TX:i:b:t=O clemens	!	!LO:TX:i:a:t=All(egr)o&colon; molto	!	!	!
4r	.	4ryy	4cc\	.	4cc\	.	4r	.
=173	=173	=173	=173	=173	=173	=173	=173	=173
!	!	!	!	!	!	!	!LO:N:vis=00	!
4F\	.	2.ryy	4f/	.	4f/	.	0.r	.
4r	.	.	4b-\	.	(>4b-\	.	.	.
4r	.	.	4a\	.	4a\)	.	.	.
=174	=174	=174	=174	=174	=174	=174	=174	=174
4F\	.	2.ryy	4f/	.	4f/	.	.	.
4r	.	.	(>4dd\	.	(>4dd\	.	.	.
4r	.	.	4cc\)	.	4cc\)	.	.	.
=175	=175	=175	=175	=175	=175	=175	=175	=175
.	.	.	8qqcc/	.	.	.	.	.
4BB-/	.	2.ryy	4b-\	.	4b-\	.	.	.
4C/	.	.	(>8a\L	.	(>8a\L	.	.	.
.	.	.	8g\)	.	8g\)	.	.	.
4C/	.	.	(>8f\	.	(>8f\	.	.	.
.	.	.	8e\J)	.	8e\J)	.	.	.
=176	=176	=176	=176	=176	=176	=176	=176	=176
4F\	.	2.ryy	4f/	.	4f/	.	.	.
4r	.	.	4dd\	.	4dd\	.	.	.
4r	.	.	4cc\	.	4cc\	.	.	.
=177	=177	=177	=177	=177	=177	=177	=177	=177
.	.	.	8qqcc	.	.	.	.	.
!	!	!	!	!	!	!	!LO:N:vis=00	!
4BB-/	.	2.ryy	4b-\	.	4b-\	.	0.r	.
4C/	.	.	8a/L	.	(8a\L	.	.	.
.	.	.	8g/	.	8g\)	.	.	.
4C/	.	.	8f/	.	(8f\	.	.	.
.	.	.	8e/J	.	8e\J)	.	.	.
=178	=178	=178	=178	=178	=178	=178	=178	=178
4F\	.	2.ryy	2f/	.	2f/	.	.	.
4A\	.	.	.	.	.	.	.	.
4F\	.	.	4cc\	.	4cc\	.	.	.
=179	=179	=179	=179	=179	=179	=179	=179	=179
4BB-/	.	2.ryy	8dd\L	.	8dd\L	.	.	.
.	.	.	8b-\J	.	8b-\J	.	.	.
4D/	.	.	4ff\	.	4ff\	.	.	.
4BB-/	.	.	4dd\	.	4dd\	.	.	.
=180	=180	=180	=180	=180	=180	=180	=180	=180
.	.	.	8qqdd/	.	8qqdd/	.	.	.
4F\	.	2.ryy	4cc\	.	4cc\	.	.	.
4r	.	.	8b-\L	.	8b-\L	.	.	.
.	.	.	8a\	.	8a\	.	.	.
4r	.	.	8g\	.	8g\	.	.	.
.	.	.	8f\J	.	8f\J	.	.	.
=181	=181	=181	=181	=181	=181	=181	=181	=181
!	!	!	!	!	!	!	!LO:N:vis=00	!
4BB-/	.	2.ryy	8dd\L	.	8dd\L	.	0.rcc	.
.	.	.	8b-\J	.	8b-\J	.	.	.
4D/	.	.	4ff\	.	4ff\	.	.	.
4BB-/	.	.	4dd\	.	4dd\	.	.	.
!	!	!	!LO:LB:g=original	!	!	!	!	!
=182	=182	=182	=182	=182	=182	=182	=182	=182
.	.	.	8qqdd/	.	8qqdd/	.	.	.
4F\	.	2.ryy	4cc\	.	4cc\	.	.	.
4r	.	.	8b-\L	.	(>8b-\L	.	.	.
.	.	.	8a\	.	8a\)	.	.	.
4r	.	.	8g\	.	(>8g\	.	.	.
.	.	.	8f\J	.	8f\J)	.	.	.
=183	=183	=183	=183	=183	=183	=183	=183	=183
4G\	.	2.ryy	4b-\	.	4b-\	.	.	.
4E\	.	.	2bb-\	.	2bb-\	.	.	.
4C\	.	.	.	.	.	.	.	.
=184	=184	=184	=184	=184	=184	=184	=184	=184
!	!	!	!	!	!LO:TX:a:t=P:problem:kilka niewyraźnych/wyblakłych znaków/liter	!	!	!
4F\	.	2.ryy	8aa\L	.	8aa\L	.	.	.
.	.	.	8ff\J	.	8gg\	.	.	.
4G\	.	.	8ee\L	.	8ff\	.	.	.
.	.	.	8cc\J	.	8ee\J	.	.	.
4A\	.	.	4ff\	.	4ff\	.	.	.
!	!	!	!	!	!LO:LB:g=original	!	!	!
=185	=185	=185	=185	=185	=185	=185	=185	=185
!	!LO:HP:a:i:t=p:	!	!	!	!	!	!	!
!	!LO:DY:a	!	!	!	!	!	!LO:N:vis=0	!
4G\	p	2.ryy	4b-\	.	4b-\	.	1.rcc	.
4E\	.	.	2bb-\	.	2bb-\	.	.	.
4C\	.	.	.	.	.	.	.	.
=186	=186	=186	=186	=186	=186	=186	=186	=186
4F\	.	2.ryy	8aa\L	.	(>8aa\L	.	.	.
.	.	.	8ff\J	.	8ff\)	.	.	.
4G\	.	.	8ee\L	.	(>8ee\	.	.	.
.	.	.	8cc\J	.	8cc\J)	.	.	.
4A\	.	.	4ff\	.	4ff\	.	.	.
!LO:LB:g=original	!	!	!	!	!	!	!	!
=187	=187	=187	=187	=187	=187	=187	=187	=187
!	!LO:HP:a:i:t=for	!	!	!	!	!	!	!
!	!LO:DY:a	!	!	!	!	!	!LO:N:vis=1	!
4B-\	f	2.ryy	8dd\L	.	8dd\L	.	2.ree	.
.	.	.	8b-\J	.	8cc\J	.	.	.
4c\	.	.	4a/	.	4a\	.	.	.
4C/	.	.	4g/	.	4g\	.	.	.
=188	=188	=188	=188	=188	=188	=188	=188	=188
4F\	.	2.ryy	2f/	.	4f/	.	4r	.
!	!	!	!	!	!	!LO:HP:a:i:t=p:	!	!
!	!	!	!	!	!	!LO:DY:a	!	!
4r	.	.	.	.	4r	p	4r	.
!	!	!	!	!	!	!	!LO:TX:a:t=c	!
4r	.	.	4r	.	4cc\	.	4cc\	O
=189	=189	=189	=189	=189	=189	=189	=189	=189
!LO:TX:a:t=P:problem:takt 215 repetycja	!	!	!	!LO:DY:a	!	!	!	!
!	!	!	!	!LO:DY:a	!	!	!	!
!	!	!	!	!LO:HP:a:i:t=pia	!	!	!	!
4F\	.	2.ryy	4f/	p	4f/	.	4f/	cle-
!	!	!	!	!	!	!	!LO:SIC:s=-mens	!
4r	.	.	4d/	.	4b-\	.	4b-\	-mes
4r	.	.	4c/	.	4a\	.	4a\	o
=190	=190	=190	=190	=190	=190	=190	=190	=190
4F\	.	2.ryy	4r	.	4f/	.	4f/	pi-
4r	.	.	4b-\	.	(>4dd\	.	4dd\	-a
4r	.	.	4a\	.	4cc'>\)	.	4cc\	o
!	!	!	!LO:LB:g=original	!	!	!	!	!
=191	=191	=191	=191	=191	=191	=191	=191	=191
4BB-/	.	2.ryy	4d/	.	4b-\	.	4b-\	Dul-
4C/	.	.	8c/L	.	(<8a/L	.	8a\L	-cis
.	.	.	8B-/	.	8g/)	.	8g\	.
4C/	.	.	8A/	.	(<8f/	.	8f\	.
.	.	.	8G/J	.	8e/J)	.	8e\J	.
=192	=192	=192	=192	=192	=192	=192	=192	=192
4F\	.	2.ryy	4A/	.	4f/	.	4f/	Vir-
4r	.	.	4b-\	.	4dd\	.	4dd\	-go
4r	.	.	4a\	.	4cc\	.	4cc\	ma-
=193	=193	=193	=193	=193	=193	=193	=193	=193
4BB-/	.	2.ryy	4d/	.	4b-\	.	4b-\	-ri-
4C/	.	.	8c/L	.	(>8a\L	.	8a\L	.
.	.	.	8B-/	.	8g\)	.	8g\	.
4C/	.	.	8A/	.	(>8f\	.	8f\	.
.	.	.	8G/J	.	8e\J)	.	8e\J	.
!	!	!	!	!	!	!	!LO:LB:g=original	!
=194	=194	=194	=194	=194	=194	=194	=194	=194
4F\	.	2.ryy	2c/	.	2f/	.	2f/	-a
4A\	.	.	.	.	.	.	.	.
4F\	.	.	4a/	.	4cc\	.	4cc\	o
=195	=195	=195	=195	=195	=195	=195	=195	=195
4BB-/	.	2.ryy	4f/	.	4dd\	.	8dd\L	cle-
.	.	.	.	.	.	.	8b-\J	.
4BB-/	.	.	4f/	.	4dd\	.	4ff\	-mens
4BB-/	.	.	4f/	.	4dd\	.	4dd\	o
=196	=196	=196	=196	=196	=196	=196	=196	=196
4F\	.	2.ryy	4a/	.	4cc\	.	4cc\	pi-
4r	.	.	4r	.	4r	.	8b-\L	-a
.	.	.	.	.	.	.	8a\J	.
4r	.	.	4r	.	4r	.	8g\L	o
.	.	.	.	.	.	.	8f\J	.
=197	=197	=197	=197	=197	=197	=197	=197	=197
4BB-/	.	2.ryy	4f/	.	4dd\	.	(>8dd\L	dul-
.	.	.	.	.	.	.	8b-\J)	.
4BB-/	.	.	4f/	.	4dd\	.	4ff\	.
4BB-/	.	.	4f/	.	4dd\	.	4dd\	-cis
=198	=198	=198	=198	=198	=198	=198	=198	=198
4F\	.	2.ryy	4a/	.	4cc\	.	4cc\	vir-
4r	.	.	4r	.	4r	.	8b-\L	-go
.	.	.	.	.	.	.	8a\J	.
4r	.	.	4r	.	4r	.	8g\L	ma-
.	.	.	.	.	.	.	8f\J	.
!	!	!	!	!	!LO:LB:g=original	!	!	!
=199	=199	=199	=199	=199	=199	=199	=199	=199
4G\	.	2.ryy	4e/	.	4b-\	.	2b-\	-ri-
4E\	.	.	4g/	.	(>4b-\	.	.	.
4F\	.	.	4f/	.	4a\)	.	4a\	.
=200	=200	=200	=200	=200	=200	=200	=200	=200
4c\	.	2.ryy	4e/	.	4g/	.	4g\	-a
4C/	.	.	4r	.	4r	.	4r	.
4r	.	.	4e/	.	4cc\	.	4cc\	Ma-
=201	=201	=201	=201	=201	=201	=201	=201	=201
4G\	.	2.ryy	8g/L	.	8bn\L	.	8bn\L	.
.	.	.	8a/J	.	8cc\J	.	8cc\J	.
4G\	.	.	2bn\	.	2dd\	.	2dd\	.
4G\	.	.	.	.	.	.	.	.
!	!	!	!LO:LB:g=original	!	!	!	!LO:LB:g=original	!
=202	=202	=202	=202	=202	=202	=202	=202	=202
!	!	!	!LO:SIC:s=8b	!	!	!	!	!
4G\	.	2.ryy	8b-\L	.	(>8dd\L	.	8dd\L	.
.	.	.	8cc\J	.	8ee\J)	.	8ee\J	.
4G\	.	.	2dd\	.	2ff\	.	2ff\	.
4G\	.	.	.	.	.	.	.	.
=203	=203	=203	=203	=203	=203	=203	=203	=203
4C/	.	2.ryy	8cc\L	.	8cc\L	.	8cc\L	.
.	.	.	8bn\J	.	8dd\J	.	8dd\J	.
4C/	.	.	2cc\	.	2dd\	.	2ee\	.
4C/	.	.	.	.	.	.	.	.
!LO:LB:g=original	!	!	!	!	!	!	!	!
=204	=204	=204	=204	=204	=204	=204	=204	=204
4C/	.	2.ryy	8cc\L	.	(>8ee\L	.	8ee\L	.
.	.	.	8dd\J	.	8ff\J)	.	8ff\J	.
4C/	.	.	2ee\	.	2gg\	.	2gg\	.
4C/	.	.	.	.	.	.	.	.
=205	=205	=205	=205	=205	=205	=205	=205	=205
4F\	.	2.ryy	4a/	.	8ff\L	.	8ff\L	.
.	.	.	.	.	8dd\J	.	8dd\J	.
.	.	.	.	.	8qqcc/	.	8qqcc/	.
4G\	.	.	4d/	.	2bn\	.	2bn\	-ri-
4GG/	.	.	4d/	.	.	.	.	.
=206	=206	=206	=206	=206	=206	=206	=206	=206
!	!LO:HP:a:i:t=for	!	!	!	!	!LO:HP:a:i:t=for	!	!
!	!LO:DY:a	!	!	!LO:DY:a	!	!LO:DY:a	!	!
4C\	f	2.ryy	2e/	f	2cc\	f	2cc\	-a
4E\	.	.	.	.	.	.	.	.
4C\	.	.	4g/	.	4g/	.	4r	.
=207	=207	=207	=207	=207	=207	=207	=207	=207
!	!	!	!	!	!	!	!LO:N:vis=00	!
4F\	.	2.ryy	4a/	.	4a\	.	0.r	.
4BBn/	.	.	2ff\	.	2ff\	.	.	.
4GG/	.	.	.	.	.	.	.	.
=208	=208	=208	=208	=208	=208	=208	=208	=208
4C\	.	2.ryy	8ee\L	.	(>8ee\L	.	.	.
.	.	.	8cc\J	.	8cc\)	.	.	.
4D\	.	.	8bn\L	.	(>8bn\	.	.	.
.	.	.	8g\J	.	8g\J)	.	.	.
4E\	.	.	4cc\	.	4cc\	.	.	.
=209	=209	=209	=209	=209	=209	=209	=209	=209
.	.	.	8qqg/	.	.	.	.	.
!	!LO:HP:a:i:t=p:	!	!	!	!	!	!	!
!	!LO:DY:a	!	!	!	!	!	!	!
4D\	p	2.ryy	4f/	.	4f/	.	.	.
4BBn\	.	.	2ff\	.	2ff\	.	.	.
4GG\	.	.	.	.	.	.	.	.
=210	=210	=210	=210	=210	=210	=210	=210	=210
4C\	.	2.ryy	8ee\L	.	(>8ee\L	.	.	.
.	.	.	8cc\J	.	8cc\J)	.	.	.
4D\	.	.	8bn\L	.	(>8bn\L	.	.	.
.	.	.	8g\J	.	8g\J)	.	.	.
4E\	.	.	4cc\	.	4cc\	.	.	.
!	!	!	!LO:LB:g=original	!	!	!	!	!
=211	=211	=211	=211	=211	=211	=211	=211	=211
!	!LO:HP:a:i:t=for	!	!	!	!	!	!	!
!	!LO:DY:a	!	!	!	!	!	!	!
4F\	f	2.ryy	8aa\L|	.	8aa\L	.	2.r	.
.	.	.	8ff\J|	.	8ff\J	.	.	.
4G\	.	.	4ee\|	.	4ee\	.	.	.
4GG/	.	.	4dd\	.	4dd\	.	.	.
!	!	!	!	!	!LO:LB:g=original	!	!	!
=212	=212	=212	=212	=212	=212	=212	=212	=212
!	!	!	!	!	!LO:TX:a:t=P:problem:bardzo niewyraźny zapis	!	!	!
2C\	.	2.ryy	2cc\	.	2cc\	.	4r	.
.	.	.	.	.	.	.	4r	.
!	!	!	!	!	!	!LO:HP:a:i:t=p:	!	!
!	!	!	!	!	!	!LO:DY:rj	!	!
4r	.	.	4gg\	.	4gg\	p	4gg\	O
=213	=213	=213	=213	=213	=213	=213	=213	=213
!	!LO:HP:a:i:t=p:	!	!	!	!	!	!	!
!	!LO:DY:a	!	!	!	!	!	!	!
4C\	p	2.ryy	4cc\|	.	4cc\	.	4cc\	cle-
4r	.	.	(<4a/	.	4ff\	.	4ff\	-mens
4r	.	.	4g/)	.	4ee\	.	4ee\	o
=214	=214	=214	=214	=214	=214	=214	=214	=214
!	!	!	!	!	!LO:TX:a:t=P:problem:takty 214-215 repetycja	!	!	!
4C\	.	2.ryy	4r	.	4cc\	.	4cc\	pi-
4r	.	.	(>4ff\	.	4aa\	.	4aa\	-a
4r	.	.	4ee\)	.	4gg\	.	4gg\	o
!	!	!	!	!	!	!	!LO:LB:g=original	!
=215	=215	=215	=215	=215	=215	=215	=215	=215
.	.	.	.	.	8qqgg/	.	.	.
4F\	.	2.ryy	4a/	.	4ff\	.	4ff\	Dul-
4G\	.	.	8g/L	.	(>8ee\L	.	8ee\L	-cis
.	.	.	8f/	.	8dd\)	.	8dd\	.
4GG/	.	.	8e/	.	(>8cc\	.	8cc\	.
!	!	!	!	!	!LO:SIC:s=8b	!	!	!
.	.	.	8d/J	.	8b-\J)	.	8bn\J	.
=216	=216	=216	=216	=216	=216	=216	=216	=216
4C\	.	2.ryy	4e/	.	4cc\	.	4cc\	Vir-
4r	.	.	4ff\	.	4aa\	.	4aa\	-go
4r	.	.	4ee\	.	4gg\	.	4gg\	ma-
=217	=217	=217	=217	=217	=217	=217	=217	=217
!LO:TX:a:t=P:problem:ten takt nie jest uwzględniony w partyturze	!	!	!LO:TX:a:t=P:problem:ten takt nie jest uwzględniony w partyturze	!	!LO:TX:a:t=P:problem:ten takt nie jest uwzględniony w partyturze	!	!LO:TX:a:t=P:problem:ten takt nie jest uwzględniony w partyturze	!
2.ryy	.	2.ryy	2.ryy	.	2.ryy	.	2.ryy	.
=218	=218	=218	=218	=218	=218	=218	=218	=218
.	.	.	8qqb-/	.	8qqgg/	.	.	.
4F\	.	2.ryy	4a/	.	4ff\	.	4ff\	-ri-
4G\	.	.	8g/L	.	(>8ee\L	.	8ee\L	.
.	.	.	8f/	.	8dd\)	.	8dd\	.
4GG/	.	.	8e/	.	(>8cc\	.	8cc\	.
!	!	!	!	!	!LO:SIC:s=8b	!	!	!
!	!	!	!	!	!	!	!LO:TX:a:t=P:problem:kasownik nad nutą	!
.	.	.	8d/J	.	8b-\J)	.	8bn\J	.
=219	=219	=219	=219	=219	=219	=219	=219	=219
4C\	.	2.ryy	2e/	.	2cc\	.	4cc\	-a
4E\	.	.	.	.	.	.	4r	.
4C\	.	.	4cc\	.	4ee\	.	4ee\	o
=220	=220	=220	=220	=220	=220	=220	=220	=220
4C/	.	2.ryy	8cc\L	.	8ee\L	.	8ee\L	cle-
.	.	.	8bn\J	.	8dd\J	.	8dd\J	.
4BBn/	.	.	4dd\	.	4ff\	.	4ff\	-mens
!LO:LB:g=original	!	!	!	!	!	!	!	!
4C/	.	.	4cc\	.	4ee\	.	4ee\	o
=221	=221	=221	=221	=221	=221	=221	=221	=221
4G\	.	2.ryy	4cc\	.	4ee\	.	4ee\	pi-
4GG/	.	.	4bn\	.	4dd\	.	4dd\	-a
4r	.	.	4a\	.	4ff\	.	4ff\	o
!	!	!	!LO:LB:g=original	!	!	!	!	!
=222	=222	=222	=222	=222	=222	=222	=222	=222
4F\	.	2.ryy	8a/L	.	8ff\L	.	8ff\L	cle-
.	.	.	8g/J	.	8ee\J	.	8ee\J	-mens
4E\	.	.	4b-X\	.	4gg\	.	4gg\	.
4F\	.	.	4a\	.	4ff\	.	4ff\	o
=223	=223	=223	=223	=223	=223	=223	=223	=223
4c\	.	2.ryy	4a/	.	4ff\	.	4ff\	pi-
4C/	.	.	4g/	.	4ee\	.	4ee\	-a
4C/	.	.	4g/	.	4ee\	.	4r	.
!	!	!	!	!	!	!	!LO:LB:g=original	!
=224	=224	=224	=224	=224	=224	=224	=224	=224
!	!	!	!	!	!LO:TX:a:t=P:problem:takty 248-249 repetycja	!	!	!
.	.	.	.	.	.	.	8qqcc/	.
4G\	.	2.ryy	4g/	.	4dd\	.	2.b-\	o
4E\	.	.	4g/	.	2bb-\	.	.	.
4C\	.	.	4g/	.	.	.	.	.
=225	=225	=225	=225	=225	=225	=225	=225	=225
4F\	.	2.ryy	4a\	.	(>8aa\L	.	8aa\L	Dul-
.	.	.	.	.	8ff\)	.	8ff\	.
4G\	.	.	4b-\	.	(>8ee\	.	8ee\	.
!	!	!	!	!	!LO:SIC:s=lub 8b-	!	!	!
.	.	.	.	.	8cc\J)	.	8cc\J	-cis
4A\	.	.	4cc\	.	4ff\	.	4ff\	.
=226	=226	=226	=226	=226	=226	=226	=226	=226
.	.	.	.	.	.	.	8qqcc/	.
4G\	.	2.ryy	4g/	.	4dd\	.	2.b-\	Vir-
4E\	.	.	4g/	.	2bb-\	.	.	.
4C\	.	.	4g/	.	.	.	.	.
=227	=227	=227	=227	=227	=227	=227	=227	=227
4F\	.	2.ryy	4a\	.	(>8aa\L	.	8aa\L	.
.	.	.	.	.	8ff\)	.	8ff\	.
4G\	.	.	4b-\	.	(>8ee\	.	8ee\	.
!	!	!	!	!	!LO:SIC:s=lub 8b-	!	!	!
.	.	.	.	.	8cc\J)	.	8cc\J	.
4A\	.	.	4cc\	.	4ff\	.	4ff\	-go
=228	=228	=228	=228	=228	=228	=228	=228	=228
4B-\	.	2.ryy	4d/|	.	8dd'>\L	.	8dd\L	Ma-
.	.	.	.	.	8b-'>\J	.	8b-\J	.
4c\	.	.	4f/|	.	4a'>\	.	4a\	-ri-
4C/	.	.	4e/|	.	4g'>\	.	4g\	.
=229	=229	=229	=229	=229	=229	=229	=229	=229
!	!	!	!	!	!	!LO:HP:a:i:t=f:	!	!
!	!	!	!	!LO:DY:a	!	!LO:DY:a	!	!
2F\	.	2.ryy	2f/	f	2f/	f	2f/	-a
4r	.	.	4cc\	.	4cc\	.	4r	.
=230	=230	=230	=230	=230	=230	=230	=230	=230
!	!LO:HP:a:i:t=for	!	!	!	!	!	!	!
!	!LO:DY:a	!	!	!	!	!	!LO:N:vis=00	!
4F\	f	2.ryy	4f/	.	4f/	.	0.r	.
4r	.	.	4b-\	.	4b-\	.	.	.
4r	.	.	4a\	.	4a\	.	.	.
=231	=231	=231	=231	=231	=231	=231	=231	=231
4F\	.	2.ryy	4f/	.	4f/	.	.	.
4r	.	.	4dd\	.	(>4dd\	.	.	.
4r	.	.	4cc\	.	4cc\)	.	.	.
!	!	!	!	!	!LO:LB:g=original	!	!	!
=232	=232	=232	=232	=232	=232	=232	=232	=232
.	.	.	8qqcc/	.	.	.	.	.
4BB-/	.	2.ryy	4b-\	.	4b-\	.	.	.
4C/	.	.	8a/L	.	8a\L	.	.	.
.	.	.	(<8g/	.	8g\	.	.	.
4C/	.	.	8f/)	.	8f\	.	.	.
.	.	.	8e/J	.	8e\J	.	.	.
=233	=233	=233	=233	=233	=233	=233	=233	=233
4F\	.	2.ryy	4f/	.	4f/	.	.	.
4r	.	.	4dd\	.	(>4dd\	.	.	.
4r	.	.	4cc\	.	4cc\)	.	.	.
!	!	!	!LO:LB:g=original	!	!	!	!	!
=234	=234	=234	=234	=234	=234	=234	=234	=234
.	.	.	8qqcc/	.	8qqcc/	.	.	.
!	!	!	!	!	!	!	!LO:N:vis=00	!
4BB-/	.	2.ryy	4b-\	.	4b-\	.	0.r	.
4C/	.	.	8a/L	.	8a\L	.	.	.
.	.	.	(<8g/	.	8g\	.	.	.
4C/	.	.	8f/)	.	8f\	.	.	.
.	.	.	8e/J	.	8e\J	.	.	.
=235	=235	=235	=235	=235	=235	=235	=235	=235
4F\	.	2.ryy	2f/	.	2f/	.	.	.
4A\	.	.	.	.	.	.	.	.
4F\	.	.	4cc\	.	4cc\	.	.	.
=236	=236	=236	=236	=236	=236	=236	=236	=236
!	!	!	!	!	!LO:TX:a:t=P:problem:takty 236-237 repetycja	!	!	!
4BB-/	.	2.ryy	8dd\L	.	8dd\L	.	.	.
.	.	.	8b-\J	.	8b-\J	.	.	.
4D/	.	.	4ff\	.	4ff\	.	.	.
4BB-/	.	.	4dd\	.	4dd\	.	.	.
!LO:LB:g=original	!	!	!	!	!	!	!	!
=237	=237	=237	=237	=237	=237	=237	=237	=237
.	.	.	8qqdd/	.	8qqdd/	.	.	.
4F\	.	2.ryy	4cc\	.	4cc\	.	.	.
4r	.	.	8b-\L	.	8b-\L	.	.	.
.	.	.	8a\	.	8a\	.	.	.
4r	.	.	8g\	.	8g\	.	.	.
.	.	.	8f\J	.	8f\J	.	.	.
=238	=238	=238	=238	=238	=238	=238	=238	=238
!	!	!	!	!	!	!	!LO:N:vis=00	!
4BB-/	.	2.ryy	8dd\L	.	8dd\L	.	0.rcc	.
.	.	.	8b-\J	.	8b-\J	.	.	.
4D/	.	.	4ff\	.	4ff\	.	.	.
4BB-/	.	.	4dd\	.	4dd\	.	.	.
=239	=239	=239	=239	=239	=239	=239	=239	=239
.	.	.	8qqdd/	.	8qqdd/	.	.	.
4F\	.	2.ryy	4cc\	.	4cc\	.	.	.
4r	.	.	8b-\L	.	8b-\L	.	.	.
.	.	.	8a\	.	8a\	.	.	.
4r	.	.	8g\	.	8g\	.	.	.
.	.	.	8f\J	.	8f\J	.	.	.
=240	=240	=240	=240	=240	=240	=240	=240	=240
4G\	.	2.ryy	4b-\	.	4b-\	.	.	.
4E\	.	.	2bb-\	.	2bb-\	.	.	.
4C\	.	.	.	.	.	.	.	.
=241	=241	=241	=241	=241	=241	=241	=241	=241
4F\	.	2.ryy	(>8aa\L	.	(>8aa\L	.	.	.
.	.	.	8ff\)	.	8ff\J)	.	.	.
4G\	.	.	(>8ee\	.	(>8ee\L	.	.	.
.	.	.	8cc\J)	.	8cc\J)	.	.	.
4A\	.	.	4ff\	.	4ff\	.	.	.
=242	=242	=242	=242	=242	=242	=242	=242	=242
!	!	!	!	!LO:DY:a	!	!	!	!
.	.	.	8qqcc/	p	8qqcc/	.	.	.
!	!LO:HP:a:i:t=p:	!	!	!	!	!	!	!
!	!LO:DY:a	!	!	!	!	!	!	!
4G\	p	2.ryy	4b-\	.	4b-\	.	0.rcc	.
4E\	.	.	2bb-\	.	2bb-\	.	.	.
4C\	.	.	.	.	.	.	.	.
!	!	!	!LO:LB:g=original	!	!	!	!	!
=243	=243	=243	=243	=243	=243	=243	=243	=243
4F\	.	2.ryy	(>8aa\L	.	(>8aa\L	.	.	.
.	.	.	8ff\)	.	8ff\)	.	.	.
4G\	.	.	(>8ee\	.	(>8ee\	.	.	.
.	.	.	8cc\J)	.	8cc\J)	.	.	.
4A\	.	.	4ff\	.	4ff\	.	.	.
=244	=244	=244	=244	=244	=244	=244	=244	=244
!	!LO:HP:a:i:t=f:	!	!	!	!	!	!	!
!	!LO:DY:a	!	!	!	!	!	!	!
4B-\	f	2.ryy	8dd\L	.	8dd\L	.	.	.
.	.	.	8b-\J	.	8b-\J	.	.	.
4c\	.	.	4a/	.	4a/	.	.	.
4C/	.	.	4g/	.	4g/	.	.	.
=245	=245	=245	=245	=245	=245	=245	=245	=245
!	!	!	!LO:TX:a:t=P:problem:mixed beam	!	!LO:TX:a:t=P:problem:mixed beam	!	!	!
4F\	.	2.ryy	8.f/L	.	8f/L	.	.	.
.	.	.	.	.	8ff\J	.	.	.
.	.	.	16dd\Jk	.	.	.	.	.
4r	.	.	8.cc\L	.	8.cc\L	.	.	.
.	.	.	16cc\Jk	.	16cc\Jk	.	.	.
4r	.	.	8.a/L	.	8.a\L	.	.	.
.	.	.	16a/Jk	.	16a\Jk	.	.	.
!	!	!	!	!	!LO:LB:g=original	!	!	!
=246	=246	=246	=246	=246	=246	=246	=246	=246
!	!	!	!	!	!	!	!LO:N:vis=0	!
4F\	.	2.ryy	4f/	.	4f/	.	1.rcc	.
4F\	.	.	4f/	.	4f/	.	.	.
4F\	.	.	4f/	.	4f/	.	.	.
=247	=247	=247	=247	=247	=247	=247	=247	=247
!	!	!	!LO:TX:a:t=P:problem:podwójna kreska taktowa z obustronną repetycją	!	!LO:TX:a:t=P:problem:podwójna kreska taktowa z obustronną repetycją	!	!LO:TX:a:t=P:problem:podwójna kreska taktowa z obustronną repetycją	!
2F\	.	2.ryy	2f/	.	2.f/	.	.	.
!LO:TX:a:t=P:problem:podwójna kreska taktowa z obustronną repetycją	!	!	!	!	!	!	!	!
4r	.	.	4r	.	.	.	.	.
==;;>	==	==	==;;>	==	==;>	==	==;>	==
*-	*-	*-	*-	*-	*-	*-	*-	*-
!!!system-decoration: s1,s2,s3,s4,s5
!!!RDF**kern: > = above
!!!RDF**kern: < = below
!!!EED: Mateusz Mrugas
!!!EST: 2020-10-11
!!!ENC: Andrzej Gręziak
!!!END: 2020-05-23
!!!RDF**kern: | = vertical stroke
